cals/argyll-xps-05-12T23:00.cal
CAL    

DESCRIPTOR "Argyll Device Calibration Curves"
ORIGINATOR "Argyll dispcal"
CREATED "Thu May 12 23:45:22 2022"
DEVICE_CLASS "DISPLAY"
COLOR_REP "RGB"
VIDEO_LUT_CALIBRATION_POSSIBLE "YES"
TV_OUTPUT_ENCODING "NO"
TARGET_WHITE_XYZ "251.667376 264.867858 288.191536"
TARGET_GAMMA "2.400000"
DEGREE_OF_BLACK_OUTPUT_OFFSET "1.000000"
BLACK_POINT_CORRECTION "0.000000"
BLACK_NEUTRAL_BLEND_RATE "4.000000"
QUALITY "medium"

NUMBER_OF_FIELDS 4
BEGIN_DATA_FORMAT
RGB_I RGB_R RGB_G RGB_B 
END_DATA_FORMAT

NUMBER_OF_SETS 256
BEGIN_DATA
0.00000 0.000146680 0.00000 0.00000 
0.00392157 0.00381400 0.000980527 0.00179844 
0.00784314 0.00752731 0.00420831 0.00450081 
0.0117647 0.0112875 0.00748538 0.00724669 
0.0156863 0.0150954 0.0108129 0.0100371 
0.0196078 0.0189519 0.0141919 0.0128733 
0.0235294 0.0228581 0.0176238 0.0157562 
0.0274510 0.0268148 0.0211097 0.0186870 
0.0313725 0.0308231 0.0246510 0.0216671 
0.0352941 0.0348839 0.0282489 0.0246975 
0.0392157 0.0389910 0.0319028 0.0277797 
0.0431373 0.0431274 0.0356010 0.0309120 
0.0470588 0.0472747 0.0393286 0.0340850 
0.0509804 0.0514098 0.0430702 0.0372913 
0.0549020 0.0555183 0.0468093 0.0405220 
0.0588235 0.0595870 0.0505325 0.0437654 
0.0627451 0.0636021 0.0542268 0.0470115 
0.0666667 0.0675548 0.0578856 0.0502517 
0.0705882 0.0714443 0.0615041 0.0534768 
0.0745098 0.0752774 0.0650818 0.0566813 
0.0784314 0.0790631 0.0686247 0.0598659 
0.0823529 0.0828055 0.0721404 0.0630352 
0.0862745 0.0865085 0.0756384 0.0661939 
0.0901961 0.0901745 0.0791232 0.0693434 
0.0941176 0.0938139 0.0825974 0.0724828 
0.0980392 0.0974380 0.0860670 0.0756147 
0.101961 0.101055 0.0895357 0.0787444 
0.105882 0.104666 0.0930083 0.0818750 
0.109804 0.108271 0.0964886 0.0850108 
0.113725 0.111872 0.0999796 0.0881544 
0.117647 0.115471 0.103482 0.0913058 
0.121569 0.119070 0.107003 0.0944655 
0.125490 0.122674 0.110540 0.0976335 
0.129412 0.126284 0.114092 0.100813 
0.133333 0.129898 0.117657 0.104007 
0.137255 0.133515 0.121237 0.107217 
0.141176 0.137130 0.124827 0.110446 
0.145098 0.140741 0.128433 0.113695 
0.149020 0.144348 0.132050 0.116963 
0.152941 0.147954 0.135679 0.120248 
0.156863 0.151563 0.139319 0.123549 
0.160784 0.155175 0.142968 0.126865 
0.164706 0.158797 0.146628 0.130199 
0.168627 0.162423 0.150294 0.133548 
0.172549 0.166055 0.153964 0.136918 
0.176471 0.169702 0.157643 0.140308 
0.180392 0.173372 0.161329 0.143717 
0.184314 0.177067 0.165025 0.147137 
0.188235 0.180783 0.168727 0.150562 
0.192157 0.184512 0.172441 0.153994 
0.196078 0.188254 0.176169 0.157424 
0.200000 0.192006 0.179909 0.160860 
0.203922 0.195771 0.183657 0.164299 
0.207843 0.199549 0.187414 0.167742 
0.211765 0.203346 0.191186 0.171188 
0.215686 0.207160 0.194974 0.174644 
0.219608 0.210992 0.198779 0.178117 
0.223529 0.214847 0.202611 0.181609 
0.227451 0.218732 0.206469 0.185124 
0.231373 0.222642 0.210353 0.188665 
0.235294 0.226580 0.214265 0.192227 
0.239216 0.230546 0.218201 0.195819 
0.243137 0.234533 0.222164 0.199438 
0.247059 0.238546 0.226152 0.203076 
0.250980 0.242589 0.230162 0.206734 
0.254902 0.246658 0.234191 0.210408 
0.258824 0.250750 0.238225 0.214096 
0.262745 0.254857 0.242264 0.217793 
0.266667 0.258974 0.246305 0.221484 
0.270588 0.263101 0.250346 0.225166 
0.274510 0.267238 0.254389 0.228839 
0.278431 0.271382 0.258436 0.232503 
0.282353 0.275535 0.262486 0.236160 
0.286275 0.279710 0.266530 0.239811 
0.290196 0.283902 0.270579 0.243453 
0.294118 0.288109 0.274637 0.247081 
0.298039 0.292340 0.278695 0.250714 
0.301961 0.296588 0.282757 0.254352 
0.305882 0.300841 0.286826 0.257990 
0.309804 0.305101 0.290899 0.261629 
0.313725 0.309358 0.294973 0.265266 
0.317647 0.313615 0.299047 0.268904 
0.321569 0.317868 0.303117 0.272543 
0.325490 0.322122 0.307178 0.276184 
0.329412 0.326370 0.311231 0.279820 
0.333333 0.330611 0.315281 0.283447 
0.337255 0.334844 0.319328 0.287064 
0.341176 0.339065 0.323371 0.290677 
0.345098 0.343268 0.327412 0.294287 
0.349020 0.347455 0.331447 0.297892 
0.352941 0.351630 0.335477 0.301495 
0.356863 0.355805 0.339509 0.305097 
0.360784 0.359991 0.343551 0.308701 
0.364706 0.364191 0.347601 0.312313 
0.368627 0.368408 0.351656 0.315935 
0.372549 0.372635 0.355715 0.319575 
0.376471 0.376871 0.359782 0.323228 
0.380392 0.381118 0.363867 0.326901 
0.384314 0.385381 0.367965 0.330597 
0.388235 0.389663 0.372059 0.334317 
0.392157 0.393957 0.376151 0.338057 
0.396078 0.398243 0.380256 0.341800 
0.400000 0.402520 0.384368 0.345538 
0.403922 0.406794 0.388475 0.349285 
0.407843 0.411058 0.392575 0.353046 
0.411765 0.415295 0.396675 0.356807 
0.415686 0.419494 0.400775 0.360559 
0.419608 0.423658 0.404872 0.364303 
0.423529 0.427791 0.408965 0.368044 
0.427451 0.431896 0.413051 0.371780 
0.431373 0.435977 0.417125 0.375510 
0.435294 0.440040 0.421190 0.379235 
0.439216 0.444082 0.425238 0.382951 
0.443137 0.448106 0.429270 0.386664 
0.447059 0.452113 0.433280 0.390378 
0.450980 0.456100 0.437270 0.394084 
0.454902 0.460078 0.441235 0.397784 
0.458824 0.464047 0.445176 0.401481 
0.462745 0.468010 0.449088 0.405176 
0.466667 0.471963 0.452970 0.408877 
0.470588 0.475914 0.456822 0.412585 
0.474510 0.479862 0.460647 0.416300 
0.478431 0.483804 0.464444 0.420017 
0.482353 0.487741 0.468213 0.423736 
0.486275 0.491673 0.471961 0.427457 
0.490196 0.495600 0.475695 0.431180 
0.494118 0.499522 0.479408 0.434896 
0.498039 0.503449 0.483101 0.438595 
0.501961 0.507385 0.486772 0.442271 
0.505882 0.511326 0.490422 0.445923 
0.509804 0.515274 0.494052 0.449551 
0.513725 0.519228 0.497668 0.453161 
0.517647 0.523188 0.501271 0.456752 
0.521569 0.527155 0.504866 0.460324 
0.525490 0.531133 0.508457 0.463874 
0.529412 0.535113 0.512044 0.467400 
0.533333 0.539095 0.515639 0.470896 
0.537255 0.543076 0.519236 0.474371 
0.541176 0.547049 0.522845 0.477824 
0.545098 0.551019 0.526470 0.481257 
0.549020 0.554987 0.530109 0.484675 
0.552941 0.558957 0.533752 0.488079 
0.556863 0.562936 0.537401 0.491458 
0.560784 0.566923 0.541063 0.494813 
0.564706 0.570905 0.544728 0.498157 
0.568627 0.574887 0.548390 0.501490 
0.572549 0.578872 0.552046 0.504805 
0.576471 0.582850 0.555694 0.508104 
0.580392 0.586815 0.559332 0.511390 
0.584314 0.590763 0.562962 0.514663 
0.588235 0.594701 0.566590 0.517924 
0.592157 0.598628 0.570213 0.521182 
0.596078 0.602548 0.573832 0.524441 
0.600000 0.606462 0.577441 0.527698 
0.603922 0.610369 0.581045 0.530952 
0.607843 0.614271 0.584639 0.534205 
0.611765 0.618168 0.588225 0.537458 
0.615686 0.622061 0.591804 0.540711 
0.619608 0.625947 0.595377 0.543968 
0.623529 0.629827 0.598947 0.547227 
0.627451 0.633701 0.602518 0.550487 
0.631373 0.637575 0.606095 0.553750 
0.635294 0.641460 0.609678 0.557017 
0.639216 0.645365 0.613254 0.560290 
0.643137 0.649294 0.616812 0.563558 
0.647059 0.653233 0.620348 0.566811 
0.650980 0.657170 0.623866 0.570043 
0.654902 0.661093 0.627390 0.573254 
0.658824 0.665004 0.630937 0.576455 
0.662745 0.668911 0.634505 0.579675 
0.666667 0.672837 0.638092 0.582917 
0.670588 0.676785 0.641685 0.586183 
0.674510 0.680753 0.645271 0.589465 
0.678431 0.684729 0.648844 0.592754 
0.682353 0.688696 0.652414 0.596044 
0.686275 0.692647 0.655989 0.599334 
0.690196 0.696585 0.659573 0.602624 
0.694118 0.700519 0.663166 0.605918 
0.698039 0.704451 0.666765 0.609216 
0.701961 0.708382 0.670367 0.612519 
0.705882 0.712317 0.673970 0.615827 
0.709804 0.716255 0.677577 0.619139 
0.713725 0.720198 0.681181 0.622455 
0.717647 0.724150 0.684788 0.625771 
0.721569 0.728105 0.688400 0.629084 
0.725490 0.732062 0.692015 0.632402 
0.729412 0.736018 0.695638 0.635725 
0.733333 0.739976 0.699269 0.639059 
0.737255 0.743936 0.702909 0.642404 
0.741176 0.747899 0.706547 0.645760 
0.745098 0.751863 0.710179 0.649125 
0.749020 0.755819 0.713807 0.652484 
0.752941 0.759765 0.717434 0.655838 
0.756863 0.763703 0.721057 0.659189 
0.760784 0.767635 0.724676 0.662537 
0.764706 0.771554 0.728284 0.665878 
0.768627 0.775464 0.731886 0.669214 
0.772549 0.779358 0.735489 0.672542 
0.776471 0.783242 0.739100 0.675867 
0.780392 0.787125 0.742716 0.679195 
0.784314 0.791015 0.746325 0.682529 
0.788235 0.794900 0.749925 0.685864 
0.792157 0.798772 0.753527 0.689194 
0.796078 0.802631 0.757132 0.692523 
0.800000 0.806482 0.760734 0.695862 
0.803922 0.810321 0.764323 0.699210 
0.807843 0.814137 0.767899 0.702560 
0.811765 0.817927 0.771466 0.705908 
0.815686 0.821699 0.775021 0.709260 
0.819608 0.825459 0.778562 0.712614 
0.823529 0.829212 0.782090 0.715972 
0.827451 0.832955 0.785608 0.719333 
0.831373 0.836701 0.789115 0.722688 
0.835294 0.840456 0.792616 0.726032 
0.839216 0.844221 0.796118 0.729367 
0.843137 0.848001 0.799622 0.732695 
0.847059 0.851797 0.803120 0.736010 
0.850980 0.855606 0.806621 0.739304 
0.854902 0.859426 0.810127 0.742586 
0.858824 0.863263 0.813629 0.745863 
0.862745 0.867113 0.817126 0.749130 
0.866667 0.870967 0.820622 0.752390 
0.870588 0.874834 0.824119 0.755647 
0.874510 0.878718 0.827617 0.758905 
0.878431 0.882618 0.831114 0.762167 
0.882353 0.886530 0.834605 0.765426 
0.886275 0.890445 0.838093 0.768680 
0.890196 0.894369 0.841570 0.771935 
0.894118 0.898292 0.845034 0.775186 
0.898039 0.902210 0.848489 0.778432 
0.901961 0.906124 0.851931 0.781672 
0.905882 0.910025 0.855369 0.784902 
0.909804 0.913914 0.858803 0.788129 
0.913725 0.917784 0.862232 0.791352 
0.917647 0.921630 0.865653 0.794572 
0.921569 0.925448 0.869070 0.797788 
0.925490 0.929244 0.872481 0.801006 
0.929412 0.933017 0.875890 0.804224 
0.933333 0.936768 0.879302 0.807446 
0.937255 0.940500 0.882716 0.810672 
0.941176 0.944214 0.886130 0.813903 
0.945098 0.947916 0.889543 0.817142 
0.949020 0.951609 0.892957 0.820387 
0.952941 0.955298 0.896370 0.823636 
0.956863 0.958987 0.899781 0.826889 
0.960784 0.962678 0.903187 0.830146 
0.964706 0.966370 0.906584 0.833406 
0.968627 0.970064 0.909969 0.836668 
0.972549 0.973758 0.913342 0.839927 
0.976471 0.977454 0.916702 0.843184 
0.980392 0.981151 0.920049 0.846438 
0.984314 0.984849 0.923385 0.849691 
0.988235 0.988548 0.926708 0.852941 
0.992157 0.992248 0.930019 0.856189 
0.996078 0.995950 0.933318 0.859435 
1.000000 0.999652 0.936605 0.862679 
END_DATA
CAL    

DESCRIPTOR "Argyll Calibration options and model"
ORIGINATOR "Argyll dispcal"
CREATED "Thu May 12 23:45:22 202"

NUMBER_OF_FIELDS 3
BEGIN_DATA_FORMAT
R_P G_P B_P 
END_DATA_FORMAT

NUMBER_OF_SETS 32
BEGIN_DATA
0.000356490 0.000578170 0.000490891 
0.999644 0.999422 0.999509 
1.797128 1.805666 1.873657 
0.387432 0.558011 0.536770 
0.175410 0.0983355 0.0656224 
0.151219 0.167954 0.151252 
0.107829 0.100931 0.129038 
0.0887603 0.0675843 0.0390896 
0.0751961 0.0468117 0.0636790 
0.0742376 0.0663929 0.0743910 
0.0683564 0.0593049 0.0622865 
0.0637612 0.0711178 0.0561578 
0.0691904 0.0538528 0.0560803 
0.0629319 0.0387539 0.0540154 
0.0598404 0.0476794 0.0504846 
0.0567196 0.0485424 0.0471329 
0.0456091 0.0461961 0.0448127 
0.0467920 0.0435970 0.0426440 
0.0563373 0.0424720 0.0405344 
0.0363970 0.0389168 0.0389925 
0.0399564 0.0390863 0.0366402 
0.0382602 0.0378335 0.0353584 
0.0336350 0.0357248 0.0338301 
0.0340803 0.0342617 0.0318918 
0.0286822 0.0366452 0.0312686 
0.0280877 0.0323665 0.0297005 
0.0300943 0.0298914 0.0285018 
0.0256250 0.0315060 0.0274796 
0.0199870 0.0305089 0.0269456 
0.0192248 0.0285912 0.0256490 
0.0203043 0.0277583 0.0252531 
0.0207047 0.0275534 0.0241750 
END_DATA
