cals/argyll-horiz-05-11T15:07.cal
CAL    

DESCRIPTOR "Argyll Device Calibration Curves"
ORIGINATOR "Argyll dispcal"
CREATED "Wed May 11 15:40:01 2022"
DEVICE_CLASS "DISPLAY"
COLOR_REP "RGB"
VIDEO_LUT_CALIBRATION_POSSIBLE "YES"
TV_OUTPUT_ENCODING "NO"
TARGET_WHITE_XYZ "295.446231 310.943447 338.347489"
TARGET_GAMMA "2.400000"
DEGREE_OF_BLACK_OUTPUT_OFFSET "1.000000"
BLACK_POINT_CORRECTION "0.039803"
BLACK_NEUTRAL_BLEND_RATE "4.000000"
QUALITY "medium"

NUMBER_OF_FIELDS 4
BEGIN_DATA_FORMAT
RGB_I RGB_R RGB_G RGB_B 
END_DATA_FORMAT

NUMBER_OF_SETS 256
BEGIN_DATA
0.00000 0.00000 0.00000 0.00000 
0.00392157 0.00000 0.00000 0.00000 
0.00784314 0.00000 0.00000 0.00000 
0.0117647 0.00000 0.000244319 0.00000 
0.0156863 0.00168477 0.00253941 0.000834526 
0.0196078 0.00392402 0.00491748 0.00288160 
0.0235294 0.00624993 0.00738311 0.00501339 
0.0274510 0.00866764 0.00994124 0.00723528 
0.0313725 0.0111827 0.0125972 0.00955309 
0.0352941 0.0138011 0.0153566 0.0119732 
0.0392157 0.0165293 0.0182257 0.0145025 
0.0431373 0.0193744 0.0212112 0.0171485 
0.0470588 0.0223440 0.0243202 0.0199196 
0.0509804 0.0254467 0.0275607 0.0228248 
0.0549020 0.0286898 0.0309386 0.0258742 
0.0588235 0.0320735 0.0344517 0.0290744 
0.0627451 0.0355973 0.0381012 0.0324243 
0.0666667 0.0392620 0.0418887 0.0359235 
0.0705882 0.0430650 0.0458107 0.0395728 
0.0745098 0.0469969 0.0498560 0.0433660 
0.0784314 0.0510435 0.0540103 0.0472930 
0.0823529 0.0551873 0.0582590 0.0513421 
0.0862745 0.0594080 0.0625845 0.0554941 
0.0901961 0.0636875 0.0669675 0.0597270 
0.0941176 0.0680139 0.0713944 0.0640226 
0.0980392 0.0723758 0.0758528 0.0683708 
0.101961 0.0767574 0.0803316 0.0727628 
0.105882 0.0811482 0.0848055 0.0771822 
0.109804 0.0855439 0.0892673 0.0816175 
0.113725 0.0899272 0.0937082 0.0860691 
0.117647 0.0942932 0.0981295 0.0905156 
0.121569 0.0986399 0.102524 0.0949584 
0.125490 0.102956 0.106881 0.0993755 
0.129412 0.107247 0.111205 0.103761 
0.133333 0.111495 0.115488 0.108110 
0.137255 0.115708 0.119736 0.112406 
0.141176 0.119897 0.123960 0.116659 
0.145098 0.124053 0.128147 0.120880 
0.149020 0.128185 0.132296 0.125054 
0.152941 0.132304 0.136416 0.129205 
0.156863 0.136426 0.140519 0.133337 
0.160784 0.140552 0.144629 0.137469 
0.164706 0.144651 0.148727 0.141573 
0.168627 0.148739 0.152814 0.145655 
0.172549 0.152819 0.156896 0.149733 
0.176471 0.156888 0.160966 0.153800 
0.180392 0.160958 0.165042 0.157867 
0.184314 0.165011 0.169118 0.161923 
0.188235 0.169041 0.173177 0.165949 
0.192157 0.173036 0.177215 0.169932 
0.196078 0.177021 0.181240 0.173895 
0.200000 0.180993 0.185259 0.177846 
0.203922 0.184939 0.189254 0.181771 
0.207843 0.188856 0.193220 0.185665 
0.211765 0.192763 0.197165 0.189544 
0.215686 0.196658 0.201109 0.193413 
0.219608 0.200527 0.205040 0.197255 
0.223529 0.204379 0.208962 0.201071 
0.227451 0.208209 0.212881 0.204866 
0.231373 0.212010 0.216779 0.208628 
0.235294 0.215811 0.220662 0.212387 
0.239216 0.219617 0.224551 0.216156 
0.243137 0.223419 0.228439 0.219925 
0.247059 0.227207 0.232316 0.223678 
0.250980 0.230989 0.236182 0.227421 
0.254902 0.234761 0.240039 0.231149 
0.258824 0.238524 0.243884 0.234861 
0.262745 0.242284 0.247724 0.238573 
0.266667 0.246016 0.251555 0.242272 
0.270588 0.249711 0.255348 0.245939 
0.274510 0.253372 0.259099 0.249573 
0.278431 0.257001 0.262809 0.253173 
0.282353 0.260616 0.266485 0.256758 
0.286275 0.264210 0.270138 0.260330 
0.290196 0.267768 0.273766 0.263870 
0.294118 0.271280 0.277361 0.267369 
0.298039 0.274758 0.280914 0.270831 
0.301961 0.278246 0.284441 0.274301 
0.305882 0.281746 0.287976 0.277791 
0.309804 0.285250 0.291519 0.281294 
0.313725 0.288749 0.295066 0.284799 
0.317647 0.292243 0.298616 0.288303 
0.321569 0.295722 0.302163 0.291790 
0.325490 0.299204 0.305701 0.295277 
0.329412 0.302688 0.309241 0.298769 
0.333333 0.306166 0.312776 0.302255 
0.337255 0.309641 0.316300 0.305736 
0.341176 0.313105 0.319812 0.309202 
0.345098 0.316558 0.323303 0.312651 
0.349020 0.320002 0.326773 0.316087 
0.352941 0.323454 0.330226 0.319528 
0.356863 0.326902 0.333688 0.322957 
0.360784 0.330347 0.337162 0.326372 
0.364706 0.333790 0.340654 0.329776 
0.368627 0.337230 0.344162 0.333168 
0.372549 0.340662 0.347690 0.336545 
0.376471 0.344092 0.351231 0.339914 
0.380392 0.347518 0.354786 0.343276 
0.384314 0.350936 0.358351 0.346624 
0.388235 0.354368 0.361916 0.349983 
0.392157 0.357813 0.365499 0.353359 
0.396078 0.361265 0.369100 0.356744 
0.400000 0.364727 0.372716 0.360144 
0.403922 0.368193 0.376347 0.363551 
0.407843 0.371661 0.379981 0.366963 
0.411765 0.375123 0.383617 0.370376 
0.415686 0.378565 0.387248 0.373776 
0.419608 0.381974 0.390861 0.377150 
0.423529 0.385350 0.394440 0.380495 
0.427451 0.388734 0.397986 0.383845 
0.431373 0.392156 0.401541 0.387239 
0.435294 0.395616 0.405133 0.390678 
0.439216 0.399109 0.408762 0.394154 
0.443137 0.402623 0.412418 0.397651 
0.447059 0.406150 0.416093 0.401164 
0.450980 0.409688 0.419767 0.404687 
0.454902 0.413235 0.423435 0.408220 
0.458824 0.416796 0.427100 0.411766 
0.462745 0.420359 0.430778 0.415315 
0.466667 0.423923 0.434467 0.418861 
0.470588 0.427479 0.438166 0.422394 
0.474510 0.431033 0.441862 0.425916 
0.478431 0.434610 0.445565 0.429458 
0.482353 0.438201 0.449293 0.433016 
0.486275 0.441792 0.453032 0.436581 
0.490196 0.445367 0.456773 0.440133 
0.494118 0.448932 0.460510 0.443679 
0.498039 0.452500 0.464254 0.447234 
0.501961 0.456055 0.468001 0.450782 
0.505882 0.459605 0.471738 0.454330 
0.509804 0.463146 0.475468 0.457877 
0.513725 0.466675 0.479184 0.461425 
0.517647 0.470193 0.482883 0.464971 
0.521569 0.473701 0.486565 0.468519 
0.525490 0.477199 0.490229 0.472067 
0.529412 0.480688 0.493877 0.475616 
0.533333 0.484172 0.497510 0.479174 
0.537255 0.487678 0.501141 0.482761 
0.541176 0.491192 0.504790 0.486352 
0.545098 0.494710 0.508447 0.489947 
0.549020 0.498235 0.512113 0.493544 
0.552941 0.501764 0.515788 0.497144 
0.556863 0.505296 0.519471 0.500745 
0.560784 0.508833 0.523162 0.504349 
0.564706 0.512378 0.526868 0.507956 
0.568627 0.515930 0.530593 0.511560 
0.572549 0.519492 0.534335 0.515175 
0.576471 0.523072 0.538110 0.518799 
0.580392 0.526656 0.541910 0.522417 
0.584314 0.530247 0.545729 0.526051 
0.588235 0.533867 0.549589 0.529719 
0.592157 0.537508 0.553487 0.533417 
0.596078 0.541166 0.557417 0.537131 
0.600000 0.544834 0.561378 0.540855 
0.603922 0.548505 0.565364 0.544573 
0.607843 0.552162 0.569356 0.548275 
0.611765 0.555817 0.573366 0.552012 
0.615686 0.559517 0.577438 0.555803 
0.619608 0.563260 0.581571 0.559636 
0.623529 0.567036 0.585751 0.563496 
0.627451 0.570831 0.589945 0.567381 
0.631373 0.574648 0.594154 0.571296 
0.635294 0.578490 0.598377 0.575241 
0.639216 0.582358 0.602620 0.579222 
0.643137 0.586254 0.606893 0.583230 
0.647059 0.590176 0.611195 0.587261 
0.650980 0.594120 0.615514 0.591306 
0.654902 0.598079 0.619856 0.595389 
0.658824 0.602078 0.624233 0.599516 
0.662745 0.606123 0.628646 0.603689 
0.666667 0.610216 0.633083 0.607900 
0.670588 0.614355 0.637547 0.612149 
0.674510 0.618544 0.642033 0.616412 
0.678431 0.622762 0.646526 0.620678 
0.682353 0.626998 0.651005 0.624926 
0.686275 0.631234 0.655442 0.629125 
0.690196 0.635435 0.659813 0.633256 
0.694118 0.639580 0.664117 0.637316 
0.698039 0.643662 0.668354 0.641314 
0.701961 0.647686 0.672617 0.645366 
0.705882 0.651738 0.676952 0.649508 
0.709804 0.655862 0.681358 0.653741 
0.713725 0.660060 0.685825 0.658052 
0.717647 0.664325 0.690331 0.662417 
0.721569 0.668640 0.694854 0.666815 
0.725490 0.672985 0.699381 0.671226 
0.729412 0.677344 0.703910 0.675648 
0.733333 0.681717 0.708429 0.680062 
0.737255 0.686096 0.712945 0.684478 
0.741176 0.690493 0.717466 0.688900 
0.745098 0.694913 0.722011 0.693316 
0.749020 0.699348 0.726576 0.697716 
0.752941 0.703792 0.731150 0.702105 
0.756863 0.708233 0.735758 0.706516 
0.760784 0.712703 0.740381 0.710928 
0.764706 0.717184 0.745017 0.715343 
0.768627 0.721672 0.749666 0.719762 
0.772549 0.726165 0.754322 0.724189 
0.776471 0.730663 0.758952 0.728604 
0.780392 0.735144 0.763555 0.733002 
0.784314 0.739593 0.768132 0.737391 
0.788235 0.744015 0.772674 0.741755 
0.792157 0.748397 0.777194 0.746120 
0.796078 0.752750 0.781689 0.750474 
0.800000 0.757086 0.786158 0.754800 
0.803922 0.761390 0.790601 0.759096 
0.807843 0.765666 0.794997 0.763345 
0.811765 0.769901 0.799333 0.767531 
0.815686 0.774078 0.803615 0.771674 
0.819608 0.778192 0.807923 0.775862 
0.823529 0.782311 0.812278 0.780100 
0.827451 0.786478 0.816675 0.784369 
0.831373 0.790686 0.821094 0.788646 
0.835294 0.794917 0.825528 0.792908 
0.839216 0.799153 0.829966 0.797154 
0.843137 0.803374 0.834409 0.801391 
0.847059 0.807589 0.838851 0.805619 
0.850980 0.811801 0.843291 0.809818 
0.854902 0.816005 0.847733 0.813990 
0.858824 0.820192 0.852182 0.818131 
0.862745 0.824369 0.856614 0.822221 
0.866667 0.828520 0.861018 0.826256 
0.870588 0.832625 0.865448 0.830298 
0.874510 0.836699 0.869914 0.834361 
0.878431 0.840802 0.874392 0.838421 
0.882353 0.844924 0.878876 0.842473 
0.886275 0.849048 0.883351 0.846518 
0.890196 0.853176 0.887816 0.850547 
0.894118 0.857306 0.892260 0.854543 
0.898039 0.861430 0.896704 0.858506 
0.901961 0.865528 0.901155 0.862473 
0.905882 0.869624 0.905599 0.866434 
0.909804 0.873730 0.910024 0.870381 
0.913725 0.877837 0.914437 0.874295 
0.917647 0.881938 0.918864 0.878184 
0.921569 0.886030 0.923287 0.882083 
0.925490 0.890142 0.927677 0.885983 
0.929412 0.894278 0.932052 0.889872 
0.933333 0.898417 0.936398 0.893776 
0.937255 0.902578 0.940719 0.897695 
0.941176 0.906773 0.945020 0.901628 
0.945098 0.910996 0.949298 0.905595 
0.949020 0.915270 0.953544 0.909590 
0.952941 0.919589 0.957753 0.913618 
0.956863 0.923959 0.961913 0.917677 
0.960784 0.928375 0.966022 0.921765 
0.964706 0.932824 0.970081 0.925879 
0.968627 0.937307 0.974085 0.930013 
0.972549 0.941815 0.978033 0.934160 
0.976471 0.946338 0.981926 0.938314 
0.980392 0.950873 0.985765 0.942473 
0.984314 0.955422 0.989551 0.946638 
0.988235 0.959983 0.993286 0.950810 
0.992157 0.964558 0.996970 0.954987 
0.996078 0.969145 1.000000 0.959171 
1.000000 0.973746 1.000000 0.963360 
END_DATA
CAL    

DESCRIPTOR "Argyll Calibration options and model"
ORIGINATOR "Argyll dispcal"
CREATED "Wed May 11 15:40:01 202"

NUMBER_OF_FIELDS 3
BEGIN_DATA_FORMAT
R_P G_P B_P 
END_DATA_FORMAT

NUMBER_OF_SETS 32
BEGIN_DATA
0.000412344 0.000604749 0.00109233 
0.999588 0.999395 0.998908 
1.481538 1.470767 1.854191 
0.434985 0.443533 0.199606 
0.195842 0.212365 0.299211 
0.169410 0.121325 0.110013 
0.151244 0.126775 0.159938 
0.106684 0.146300 0.107748 
0.0964684 0.0871944 0.114302 
0.0973675 0.0869952 0.0762574 
0.0830187 0.0720178 0.0811474 
0.0716071 0.0717933 0.0624981 
0.0521523 0.0660680 0.0569784 
0.0612036 0.0612149 0.0564004 
0.0468455 0.0475226 0.0446300 
0.0513010 0.0518362 0.0530807 
0.0505803 0.0469041 0.0355795 
0.0428158 0.0437352 0.0440049 
0.0384329 0.0426081 0.0465671 
0.0328727 0.0411018 0.0350463 
0.0320501 0.0372145 0.0363150 
0.0291871 0.0342981 0.0361421 
0.0270098 0.0329048 0.0335393 
0.0225769 0.0316919 0.0335588 
0.0229637 0.0285239 0.0291801 
0.0221002 0.0276512 0.0296932 
0.0179717 0.0282984 0.0304019 
0.0174023 0.0256397 0.0301399 
0.0178787 0.0242452 0.0222297 
0.0144375 0.0245427 0.0249793 
0.0131852 0.0229338 0.0252911 
0.0107204 0.0219488 0.0181759 
END_DATA
