cals/horiz-spec-05-25_16:13.cal
CAL    

DESCRIPTOR "Argyll Device Calibration Curves"
ORIGINATOR "Argyll dispcal"
CREATED "Wed May 25 17:10:01 2022"
DEVICE_CLASS "DISPLAY"
COLOR_REP "RGB"
VIDEO_LUT_CALIBRATION_POSSIBLE "YES"
TV_OUTPUT_ENCODING "NO"
TARGET_WHITE_XYZ "105.575190 111.078470 120.970869"
TARGET_GAMMA "2.400000"
DEGREE_OF_BLACK_OUTPUT_OFFSET "1.000000"
BLACK_POINT_CORRECTION "0.407433"
BLACK_NEUTRAL_BLEND_RATE "4.000000"
QUALITY "medium"

NUMBER_OF_FIELDS 4
BEGIN_DATA_FORMAT
RGB_I RGB_R RGB_G RGB_B 
END_DATA_FORMAT

NUMBER_OF_SETS 256
BEGIN_DATA
0.00000 0.000714528 0.00141764 0.00000 
0.00392157 0.00259835 0.00327204 0.00000 
0.00784314 0.00454505 0.00519012 0.00000 
0.0117647 0.00655782 0.00717524 0.00000 
0.0156863 0.00864010 0.00923096 0.00000 
0.0196078 0.0107955 0.0113611 0.00178575 
0.0235294 0.0130281 0.0135698 0.00385735 
0.0274510 0.0153419 0.0158615 0.00601892 
0.0313725 0.0177416 0.0182410 0.00827646 
0.0352941 0.0202319 0.0207134 0.0106365 
0.0392157 0.0228182 0.0232842 0.0131062 
0.0431373 0.0255060 0.0259594 0.0156933 
0.0470588 0.0283016 0.0287456 0.0184065 
0.0509804 0.0312114 0.0316497 0.0212552 
0.0549020 0.0342427 0.0346795 0.0242498 
0.0588235 0.0374005 0.0378417 0.0274016 
0.0627451 0.0406862 0.0411381 0.0307188 
0.0666667 0.0440952 0.0445615 0.0342061 
0.0705882 0.0476202 0.0481057 0.0378590 
0.0745098 0.0512639 0.0517733 0.0416705 
0.0784314 0.0550308 0.0555646 0.0456384 
0.0823529 0.0589200 0.0594698 0.0497618 
0.0862745 0.0629184 0.0634717 0.0540301 
0.0901961 0.0670080 0.0675509 0.0584195 
0.0941176 0.0711782 0.0716900 0.0629023 
0.0980392 0.0754221 0.0758757 0.0674538 
0.101961 0.0797307 0.0801017 0.0720558 
0.105882 0.0840955 0.0843670 0.0766962 
0.109804 0.0885205 0.0886746 0.0813788 
0.113725 0.0929984 0.0930158 0.0861041 
0.117647 0.0975111 0.0973752 0.0908653 
0.121569 0.102036 0.101724 0.0956468 
0.125490 0.106560 0.106061 0.100433 
0.129412 0.111061 0.110376 0.105204 
0.133333 0.115543 0.114675 0.109965 
0.137255 0.119984 0.118946 0.114677 
0.141176 0.124380 0.123172 0.119341 
0.145098 0.128732 0.127354 0.123965 
0.149020 0.133028 0.131500 0.128518 
0.152941 0.137256 0.135592 0.133018 
0.156863 0.141433 0.139647 0.137469 
0.160784 0.145570 0.143671 0.141896 
0.164706 0.149683 0.147682 0.146276 
0.168627 0.153754 0.151669 0.150619 
0.172549 0.157803 0.155624 0.154946 
0.176471 0.161845 0.159570 0.159258 
0.180392 0.165886 0.163506 0.163576 
0.184314 0.169941 0.167437 0.167894 
0.188235 0.174011 0.171375 0.172187 
0.192157 0.178077 0.175312 0.176440 
0.196078 0.182126 0.179239 0.180683 
0.200000 0.186177 0.183149 0.184905 
0.203922 0.190232 0.187066 0.189090 
0.207843 0.194275 0.190981 0.193235 
0.211765 0.198296 0.194877 0.197354 
0.215686 0.202306 0.198743 0.201434 
0.219608 0.206305 0.202589 0.205460 
0.223529 0.210274 0.206414 0.209426 
0.227451 0.214202 0.210198 0.213322 
0.231373 0.218088 0.213937 0.217146 
0.235294 0.221920 0.217635 0.220943 
0.239216 0.225728 0.221278 0.224715 
0.243137 0.229531 0.224889 0.228456 
0.247059 0.233328 0.228494 0.232155 
0.250980 0.237107 0.232096 0.235823 
0.254902 0.240877 0.235691 0.239463 
0.258824 0.244648 0.239280 0.243081 
0.262745 0.248422 0.242873 0.246711 
0.266667 0.252219 0.246474 0.250352 
0.270588 0.256038 0.250088 0.253986 
0.274510 0.259863 0.253732 0.257611 
0.278431 0.263691 0.257391 0.261232 
0.282353 0.267524 0.261059 0.264866 
0.286275 0.271374 0.264733 0.268514 
0.290196 0.275234 0.268410 0.272161 
0.294118 0.279081 0.272100 0.275794 
0.298039 0.282898 0.275790 0.279417 
0.301961 0.286692 0.279454 0.283060 
0.305882 0.290490 0.283076 0.286737 
0.309804 0.294295 0.286660 0.290437 
0.313725 0.298086 0.290243 0.294141 
0.317647 0.301856 0.293827 0.297842 
0.321569 0.305590 0.297401 0.301521 
0.325490 0.309283 0.300958 0.305189 
0.329412 0.312956 0.304498 0.308857 
0.333333 0.316606 0.308008 0.312510 
0.337255 0.320228 0.311504 0.316147 
0.341176 0.323827 0.314992 0.319768 
0.345098 0.327404 0.318463 0.323373 
0.349020 0.330958 0.321923 0.326970 
0.352941 0.334505 0.325378 0.330585 
0.356863 0.338061 0.328825 0.334198 
0.360784 0.341618 0.332266 0.337806 
0.364706 0.345174 0.335721 0.341408 
0.368627 0.348731 0.339183 0.345002 
0.372549 0.352285 0.342649 0.348590 
0.376471 0.355844 0.346117 0.352186 
0.380392 0.359414 0.349585 0.355783 
0.384314 0.362982 0.353049 0.359372 
0.388235 0.366561 0.356516 0.362975 
0.392157 0.370160 0.359985 0.366591 
0.396078 0.373775 0.363446 0.370219 
0.400000 0.377408 0.366916 0.373863 
0.403922 0.381040 0.370398 0.377500 
0.407843 0.384666 0.373891 0.381130 
0.411765 0.388277 0.377397 0.384741 
0.415686 0.391860 0.380908 0.388318 
0.419608 0.395406 0.384422 0.391850 
0.423529 0.398912 0.387936 0.395345 
0.427451 0.402413 0.391440 0.398855 
0.431373 0.405936 0.394918 0.402396 
0.435294 0.409483 0.398370 0.405966 
0.439216 0.413049 0.401827 0.409553 
0.443137 0.416620 0.405323 0.413143 
0.447059 0.420195 0.408858 0.416732 
0.450980 0.423766 0.412426 0.420323 
0.454902 0.427330 0.416016 0.423911 
0.458824 0.430892 0.419620 0.427505 
0.462745 0.434447 0.423235 0.431091 
0.466667 0.437992 0.426860 0.434664 
0.470588 0.441516 0.430497 0.438208 
0.474510 0.445017 0.434135 0.441736 
0.478431 0.448526 0.437773 0.445281 
0.482353 0.452047 0.441398 0.448837 
0.486275 0.455576 0.445007 0.452401 
0.490196 0.459092 0.448640 0.455954 
0.494118 0.462586 0.452297 0.459499 
0.498039 0.466075 0.455970 0.463052 
0.501961 0.469558 0.459629 0.466596 
0.505882 0.473037 0.463276 0.470142 
0.509804 0.476520 0.466925 0.473688 
0.513725 0.480005 0.470567 0.477235 
0.517647 0.483494 0.474210 0.480783 
0.521569 0.486987 0.477849 0.484334 
0.525490 0.490486 0.481482 0.487887 
0.529412 0.493990 0.485106 0.491443 
0.533333 0.497500 0.488721 0.495007 
0.537255 0.501042 0.492327 0.498616 
0.541176 0.504615 0.495923 0.502242 
0.545098 0.508210 0.499516 0.505882 
0.549020 0.511826 0.503131 0.509537 
0.552941 0.515465 0.506752 0.513205 
0.556863 0.519126 0.510378 0.516888 
0.560784 0.522805 0.514008 0.520582 
0.564706 0.526505 0.517643 0.524291 
0.568627 0.530225 0.521286 0.528010 
0.572549 0.533954 0.524937 0.531737 
0.576471 0.537701 0.528604 0.535490 
0.580392 0.541461 0.532279 0.539251 
0.584314 0.545217 0.535971 0.543014 
0.588235 0.548984 0.539683 0.546805 
0.592157 0.552773 0.543402 0.550625 
0.596078 0.556582 0.547139 0.554467 
0.600000 0.560397 0.550912 0.558311 
0.603922 0.564215 0.554714 0.562149 
0.607843 0.568025 0.558533 0.565960 
0.611765 0.571825 0.562363 0.569765 
0.615686 0.575652 0.566192 0.573604 
0.619608 0.579507 0.570010 0.577471 
0.623529 0.583386 0.573853 0.581357 
0.627451 0.587279 0.577743 0.585260 
0.631373 0.591194 0.581663 0.589191 
0.635294 0.595141 0.585602 0.593153 
0.639216 0.599123 0.589558 0.597147 
0.643137 0.603142 0.593548 0.601172 
0.647059 0.607186 0.597580 0.605213 
0.650980 0.611252 0.601652 0.609271 
0.654902 0.615334 0.605753 0.613343 
0.658824 0.619456 0.609881 0.617456 
0.662745 0.623632 0.614026 0.621613 
0.666667 0.627854 0.618206 0.625804 
0.670588 0.632103 0.622433 0.630011 
0.674510 0.636374 0.626710 0.634231 
0.678431 0.640639 0.631023 0.638446 
0.682353 0.644892 0.635373 0.642651 
0.686275 0.649112 0.639729 0.646823 
0.690196 0.653278 0.644078 0.650938 
0.694118 0.657378 0.648400 0.654979 
0.698039 0.661405 0.652670 0.658945 
0.701961 0.665363 0.656868 0.662835 
0.705882 0.669322 0.660992 0.666751 
0.709804 0.673351 0.665045 0.670772 
0.713725 0.677451 0.669119 0.674901 
0.717647 0.681621 0.673271 0.679136 
0.721569 0.685849 0.677502 0.683460 
0.725490 0.690128 0.681806 0.687851 
0.729412 0.694443 0.686172 0.692286 
0.733333 0.698784 0.690573 0.696754 
0.737255 0.703139 0.694996 0.701244 
0.741176 0.707493 0.699439 0.705742 
0.745098 0.711853 0.703887 0.710254 
0.749020 0.716217 0.708338 0.714778 
0.752941 0.720584 0.712791 0.719303 
0.756863 0.724950 0.717237 0.723824 
0.760784 0.729321 0.721673 0.728363 
0.764706 0.733716 0.726092 0.732931 
0.768627 0.738121 0.730522 0.737502 
0.772549 0.742533 0.734957 0.742074 
0.776471 0.746955 0.739389 0.746647 
0.780392 0.751396 0.743828 0.751242 
0.784314 0.755856 0.748279 0.755865 
0.788235 0.760330 0.752754 0.760516 
0.792157 0.764809 0.757243 0.765180 
0.796078 0.769270 0.761740 0.769850 
0.800000 0.773738 0.766227 0.774551 
0.803922 0.778218 0.770706 0.779256 
0.807843 0.782689 0.775201 0.783948 
0.811765 0.787146 0.779695 0.788611 
0.815686 0.791571 0.784179 0.793220 
0.819608 0.795946 0.788639 0.797767 
0.823529 0.800279 0.793051 0.802343 
0.827451 0.804643 0.797405 0.806983 
0.831373 0.809048 0.801759 0.811667 
0.835294 0.813484 0.806162 0.816366 
0.839216 0.817938 0.810603 0.821052 
0.843137 0.822379 0.815064 0.825729 
0.847059 0.826809 0.819522 0.830401 
0.850980 0.831238 0.823952 0.835065 
0.854902 0.835671 0.828366 0.839696 
0.858824 0.840100 0.832765 0.844289 
0.862745 0.844516 0.837148 0.848830 
0.866667 0.848909 0.841504 0.853303 
0.870588 0.853263 0.845839 0.857731 
0.874510 0.857582 0.850139 0.862177 
0.878431 0.861912 0.854389 0.866628 
0.882353 0.866257 0.858622 0.871063 
0.886275 0.870607 0.862877 0.875484 
0.890196 0.874963 0.867148 0.879868 
0.894118 0.879304 0.871427 0.884204 
0.898039 0.883621 0.875714 0.888481 
0.901961 0.887892 0.880003 0.892755 
0.905882 0.892155 0.884280 0.897027 
0.909804 0.896428 0.888544 0.901283 
0.913725 0.900706 0.892847 0.905499 
0.917647 0.904965 0.897178 0.909682 
0.921569 0.909209 0.901523 0.913863 
0.925490 0.913469 0.905873 0.918034 
0.929412 0.917742 0.910254 0.922185 
0.933333 0.922016 0.914683 0.926344 
0.937255 0.926314 0.919143 0.930503 
0.941176 0.930635 0.923640 0.934666 
0.945098 0.934975 0.928185 0.938845 
0.949020 0.939341 0.932765 0.943036 
0.952941 0.943737 0.937396 0.947242 
0.956863 0.948164 0.942071 0.951460 
0.960784 0.952615 0.946792 0.955689 
0.964706 0.957089 0.951555 0.959927 
0.968627 0.961579 0.956360 0.964170 
0.972549 0.966081 0.961207 0.968409 
0.976471 0.970589 0.966093 0.972643 
0.980392 0.975103 0.971014 0.976871 
0.984314 0.979622 0.975968 0.981093 
0.988235 0.984147 0.980958 0.985308 
0.992157 0.988677 0.985982 0.989518 
0.996078 0.993214 0.991043 0.993722 
1.000000 0.997755 0.996139 0.997919 
END_DATA
CAL    

DESCRIPTOR "Argyll Calibration options and model"
ORIGINATOR "Argyll dispcal"
CREATED "Wed May 25 17:10:01 202"

NUMBER_OF_FIELDS 3
BEGIN_DATA_FORMAT
R_P G_P B_P 
END_DATA_FORMAT

NUMBER_OF_SETS 32
BEGIN_DATA
0.000352349 0.000680772 0.00174620 
0.999648 0.999319 0.998254 
1.525222 1.315384 1.449076 
0.664981 0.648427 0.578098 
0.0993713 0.151532 0.156779 
0.129641 0.137320 0.126059 
0.134902 0.0802945 0.116399 
0.0853685 0.121205 0.102512 
0.0675624 0.109163 0.0940742 
0.0734988 0.0814031 0.0919114 
0.0773056 0.0629561 0.0688349 
0.0672338 0.0683024 0.0619994 
0.0522557 0.0628403 0.0592682 
0.0396107 0.0514321 0.0496967 
0.0344858 0.0429700 0.0494136 
0.0327451 0.0424660 0.0452723 
0.0342648 0.0436723 0.0381637 
0.0358390 0.0452760 0.0408385 
0.0328753 0.0399056 0.0399749 
0.0329878 0.0333257 0.0333021 
0.0293214 0.0361798 0.0337469 
0.0254729 0.0342828 0.0303754 
0.0237443 0.0337713 0.0275640 
0.0215967 0.0322992 0.0277856 
0.0222960 0.0320013 0.0287908 
0.0214316 0.0297826 0.0241540 
0.0191083 0.0235534 0.0239492 
0.0166440 0.0274356 0.0234902 
0.0167861 0.0261477 0.0205009 
0.0180959 0.0265249 0.0204548 
0.0146466 0.0216230 0.0184493 
0.0141480 0.0212125 0.0173396 
END_DATA
