cals/test-05-11T13:21.cal
CAL    

DESCRIPTOR "Argyll Device Calibration Curves"
ORIGINATOR "Argyll dispcal"
CREATED "Wed May 11 13:54:52 2022"
DEVICE_CLASS "DISPLAY"
COLOR_REP "RGB"
VIDEO_LUT_CALIBRATION_POSSIBLE "YES"
TV_OUTPUT_ENCODING "NO"
NATIVE_TARGET_WHITE ""
TARGET_WHITE_XYZ "241.830069 243.699394 301.578336"
TARGET_GAMMA "2.400000"
DEGREE_OF_BLACK_OUTPUT_OFFSET "1.000000"
BLACK_POINT_CORRECTION "0.157135"
BLACK_NEUTRAL_BLEND_RATE "4.000000"
QUALITY "medium"

NUMBER_OF_FIELDS 4
BEGIN_DATA_FORMAT
RGB_I RGB_R RGB_G RGB_B 
END_DATA_FORMAT

NUMBER_OF_SETS 256
BEGIN_DATA
0.00000 0.00000 0.00000 0.00000 
0.00392157 0.00000 0.00000 0.00000 
0.00784314 0.00000 0.00000 0.00000 
0.0117647 0.000477999 0.000388196 0.00000 
0.0156863 0.00292534 0.00281723 0.000799847 
0.0196078 0.00545430 0.00532328 0.00310330 
0.0235294 0.00806905 0.00791007 0.00549827 
0.0274510 0.0107740 0.0105816 0.00799031 
0.0313725 0.0135740 0.0133420 0.0105854 
0.0352941 0.0164740 0.0161959 0.0132902 
0.0392157 0.0194795 0.0191480 0.0161117 
0.0431373 0.0225964 0.0222036 0.0190577 
0.0470588 0.0258310 0.0253682 0.0221365 
0.0509804 0.0291899 0.0286475 0.0253574 
0.0549020 0.0326763 0.0320460 0.0287296 
0.0588235 0.0362905 0.0355649 0.0322575 
0.0627451 0.0400274 0.0392030 0.0359413 
0.0666667 0.0438793 0.0429597 0.0397746 
0.0705882 0.0478399 0.0468338 0.0437478 
0.0745098 0.0519025 0.0508164 0.0478487 
0.0784314 0.0560536 0.0548951 0.0520665 
0.0823529 0.0602755 0.0590609 0.0563868 
0.0862745 0.0645491 0.0632972 0.0607845 
0.0901961 0.0688696 0.0675946 0.0652431 
0.0941176 0.0732309 0.0719351 0.0697535 
0.0980392 0.0776320 0.0763112 0.0743051 
0.101961 0.0820728 0.0807177 0.0788957 
0.105882 0.0865422 0.0851327 0.0835153 
0.109804 0.0910375 0.0895509 0.0881659 
0.113725 0.0955528 0.0939587 0.0928399 
0.117647 0.100078 0.0983587 0.0975434 
0.121569 0.104586 0.102733 0.102241 
0.125490 0.109081 0.107081 0.106927 
0.129412 0.113555 0.111412 0.111596 
0.133333 0.118009 0.115718 0.116236 
0.137255 0.122449 0.120000 0.120855 
0.141176 0.126867 0.124266 0.125451 
0.145098 0.131244 0.128491 0.129986 
0.149020 0.135580 0.132675 0.134460 
0.152941 0.139880 0.136820 0.138879 
0.156863 0.144151 0.140943 0.143261 
0.160784 0.148380 0.145048 0.147587 
0.164706 0.152565 0.149124 0.151859 
0.168627 0.156710 0.153179 0.156085 
0.172549 0.160817 0.157212 0.160267 
0.176471 0.164903 0.161223 0.164429 
0.180392 0.168969 0.165232 0.168568 
0.184314 0.172997 0.169229 0.172666 
0.188235 0.176981 0.173205 0.176717 
0.192157 0.180938 0.177158 0.180744 
0.196078 0.184870 0.181103 0.184741 
0.200000 0.188762 0.185038 0.188692 
0.203922 0.192612 0.188949 0.192597 
0.207843 0.196431 0.192831 0.196481 
0.211765 0.200243 0.196696 0.200366 
0.215686 0.204045 0.200565 0.204245 
0.219608 0.207832 0.204431 0.208115 
0.223529 0.211602 0.208292 0.211973 
0.227451 0.215347 0.212145 0.215803 
0.231373 0.219075 0.215975 0.219625 
0.235294 0.222807 0.219790 0.223452 
0.239216 0.226540 0.223607 0.227275 
0.243137 0.230269 0.227421 0.231087 
0.247059 0.233997 0.231228 0.234893 
0.250980 0.237728 0.235026 0.238692 
0.254902 0.241461 0.238818 0.242486 
0.258824 0.245206 0.242605 0.246302 
0.262745 0.248977 0.246397 0.250131 
0.266667 0.252756 0.250200 0.253955 
0.270588 0.256539 0.253994 0.257773 
0.274510 0.260329 0.257774 0.261587 
0.278431 0.264128 0.261540 0.265402 
0.282353 0.267939 0.265293 0.269219 
0.286275 0.271759 0.269034 0.273029 
0.290196 0.275578 0.272759 0.276824 
0.294118 0.279383 0.276454 0.280603 
0.298039 0.283187 0.280109 0.284397 
0.301961 0.287012 0.283744 0.288216 
0.305882 0.290853 0.287379 0.292049 
0.309804 0.294697 0.291012 0.295887 
0.313725 0.298542 0.294636 0.299720 
0.317647 0.302364 0.298252 0.303527 
0.321569 0.306158 0.301847 0.307319 
0.325490 0.309928 0.305419 0.311085 
0.329412 0.313657 0.308980 0.314815 
0.333333 0.317343 0.312519 0.318506 
0.337255 0.320983 0.316034 0.322157 
0.341176 0.324575 0.319524 0.325769 
0.345098 0.328122 0.322988 0.329352 
0.349020 0.331643 0.326427 0.332937 
0.352941 0.335163 0.329850 0.336518 
0.356863 0.338682 0.333291 0.340106 
0.360784 0.342200 0.336757 0.343700 
0.364706 0.345719 0.340253 0.347302 
0.368627 0.349238 0.343778 0.350910 
0.372549 0.352761 0.347329 0.354527 
0.376471 0.356286 0.350900 0.358139 
0.380392 0.359809 0.354491 0.361754 
0.384314 0.363344 0.358088 0.365387 
0.388235 0.366898 0.361693 0.369035 
0.392157 0.370469 0.365318 0.372700 
0.396078 0.374059 0.368960 0.376367 
0.400000 0.377655 0.372617 0.380028 
0.403922 0.381255 0.376277 0.383682 
0.407843 0.384859 0.379935 0.387321 
0.411765 0.388460 0.383589 0.390929 
0.415686 0.392045 0.387233 0.394502 
0.419608 0.395610 0.390852 0.398074 
0.423529 0.399190 0.394445 0.401684 
0.427451 0.402809 0.398025 0.405333 
0.431373 0.406466 0.401631 0.409011 
0.435294 0.410153 0.405267 0.412707 
0.439216 0.413860 0.408930 0.416412 
0.443137 0.417577 0.412614 0.420121 
0.447059 0.421300 0.416309 0.423834 
0.450980 0.425029 0.420003 0.427557 
0.454902 0.428766 0.423697 0.431286 
0.458824 0.432508 0.427397 0.435022 
0.462745 0.436253 0.431109 0.438747 
0.466667 0.439985 0.434831 0.442469 
0.470588 0.443715 0.438550 0.446207 
0.474510 0.447462 0.442262 0.449953 
0.478431 0.451218 0.445987 0.453699 
0.482353 0.454978 0.449724 0.457433 
0.486275 0.458730 0.453464 0.461158 
0.490196 0.462473 0.457197 0.464879 
0.494118 0.466205 0.460920 0.468591 
0.498039 0.469927 0.464643 0.472302 
0.501961 0.473643 0.468359 0.476010 
0.505882 0.477354 0.472069 0.479715 
0.509804 0.481059 0.475769 0.483418 
0.513725 0.484758 0.479459 0.487119 
0.517647 0.488453 0.483136 0.490818 
0.521569 0.492142 0.486802 0.494514 
0.525490 0.495828 0.490457 0.498226 
0.529412 0.499529 0.494100 0.501970 
0.533333 0.503251 0.497736 0.505740 
0.537255 0.506987 0.501389 0.509535 
0.541176 0.510740 0.505055 0.513356 
0.545098 0.514508 0.508733 0.517202 
0.549020 0.518291 0.512423 0.521072 
0.552941 0.522089 0.516126 0.524967 
0.556863 0.525903 0.519841 0.528887 
0.560784 0.529730 0.523571 0.532827 
0.564706 0.533566 0.527318 0.536791 
0.568627 0.537413 0.531082 0.540768 
0.572549 0.541265 0.534870 0.544759 
0.576471 0.545123 0.538680 0.548785 
0.580392 0.549007 0.542504 0.552837 
0.584314 0.552911 0.546352 0.556911 
0.588235 0.556834 0.550230 0.560998 
0.592157 0.560770 0.554129 0.565074 
0.596078 0.564705 0.558054 0.569129 
0.600000 0.568625 0.562001 0.573205 
0.603922 0.572554 0.565954 0.577311 
0.607843 0.576508 0.569916 0.581440 
0.611765 0.580484 0.573920 0.585574 
0.615686 0.584470 0.577974 0.589711 
0.619608 0.588460 0.582066 0.593850 
0.623529 0.592456 0.586175 0.597993 
0.627451 0.596457 0.590299 0.602175 
0.631373 0.600475 0.594437 0.606403 
0.635294 0.604530 0.598591 0.610679 
0.639216 0.608621 0.602785 0.615000 
0.643137 0.612742 0.607023 0.619384 
0.647059 0.616892 0.611302 0.623826 
0.650980 0.621074 0.615613 0.628306 
0.654902 0.625285 0.619971 0.632819 
0.658824 0.629511 0.624374 0.637363 
0.662745 0.633752 0.628802 0.641930 
0.666667 0.638003 0.633255 0.646502 
0.670588 0.642257 0.637730 0.651053 
0.674510 0.646505 0.642215 0.655550 
0.678431 0.650731 0.646686 0.659983 
0.682353 0.654918 0.651128 0.664341 
0.686275 0.659058 0.655522 0.668714 
0.690196 0.663150 0.659865 0.673169 
0.694118 0.667222 0.664155 0.677708 
0.698039 0.671364 0.668436 0.682322 
0.701961 0.675582 0.672782 0.686986 
0.705882 0.679877 0.677194 0.691670 
0.709804 0.684236 0.681669 0.696361 
0.713725 0.688643 0.686197 0.701061 
0.717647 0.693075 0.690753 0.705737 
0.721569 0.697534 0.695322 0.710392 
0.725490 0.702010 0.699899 0.715027 
0.729412 0.706481 0.704463 0.719645 
0.733333 0.710952 0.709011 0.724239 
0.737255 0.715419 0.713539 0.728813 
0.741176 0.719880 0.718064 0.733391 
0.745098 0.724330 0.722584 0.737961 
0.749020 0.728770 0.727086 0.742524 
0.752941 0.733222 0.731591 0.747077 
0.756863 0.737680 0.736094 0.751615 
0.760784 0.742142 0.740595 0.756146 
0.764706 0.746607 0.745096 0.760672 
0.768627 0.751070 0.749598 0.765195 
0.772549 0.755538 0.754091 0.769706 
0.776471 0.760011 0.758576 0.774219 
0.780392 0.764491 0.763054 0.778725 
0.784314 0.768966 0.767520 0.783212 
0.788235 0.773439 0.771980 0.787675 
0.792157 0.777905 0.776440 0.792095 
0.796078 0.782357 0.780902 0.796453 
0.800000 0.786794 0.785367 0.800765 
0.803922 0.791207 0.789814 0.805110 
0.807843 0.795581 0.794225 0.809497 
0.811765 0.799914 0.798592 0.813908 
0.815686 0.804267 0.802958 0.818317 
0.819608 0.808662 0.807365 0.822716 
0.823529 0.813091 0.811810 0.827104 
0.827451 0.817528 0.816274 0.831483 
0.831373 0.821963 0.820746 0.835841 
0.835294 0.826389 0.825211 0.840188 
0.839216 0.830810 0.829672 0.844524 
0.843137 0.835219 0.834122 0.848847 
0.847059 0.839618 0.838562 0.853140 
0.850980 0.844006 0.842996 0.857395 
0.854902 0.848384 0.847430 0.861659 
0.858824 0.852744 0.851854 0.865936 
0.862745 0.857077 0.856252 0.870210 
0.866667 0.861420 0.860655 0.874482 
0.870588 0.865782 0.865089 0.878732 
0.874510 0.870149 0.869543 0.882959 
0.878431 0.874522 0.874012 0.887153 
0.882353 0.878886 0.878474 0.891328 
0.886275 0.883240 0.882925 0.895506 
0.890196 0.887574 0.887360 0.899681 
0.894118 0.891905 0.891788 0.903829 
0.898039 0.896255 0.896228 0.907940 
0.901961 0.900614 0.900668 0.912028 
0.905882 0.904955 0.905088 0.916106 
0.909804 0.909272 0.909486 0.920155 
0.913725 0.913590 0.913884 0.924168 
0.917647 0.917908 0.918282 0.928156 
0.921569 0.922207 0.922653 0.932109 
0.925490 0.926487 0.927008 0.936020 
0.929412 0.930750 0.931343 0.939889 
0.933333 0.934986 0.935643 0.943702 
0.937255 0.939199 0.939912 0.947464 
0.941176 0.943373 0.944138 0.951173 
0.945098 0.947510 0.948313 0.954822 
0.949020 0.951603 0.952435 0.958410 
0.952941 0.955647 0.956493 0.961939 
0.956863 0.959639 0.960487 0.965407 
0.960784 0.963576 0.964411 0.968817 
0.964706 0.967458 0.968266 0.972170 
0.968627 0.971284 0.972050 0.975467 
0.972549 0.975055 0.975765 0.978710 
0.976471 0.978771 0.979414 0.981900 
0.980392 0.982435 0.982998 0.985039 
0.984314 0.986047 0.986518 0.988127 
0.988235 0.989609 0.989977 0.991166 
0.992157 0.993121 0.993376 0.994157 
0.996078 0.996584 0.996717 0.997101 
1.000000 1.000000 1.000000 1.000000 
END_DATA
CAL    

DESCRIPTOR "Argyll Calibration options and model"
ORIGINATOR "Argyll dispcal"
CREATED "Wed May 11 13:54:52 202"

NUMBER_OF_FIELDS 3
BEGIN_DATA_FORMAT
R_P G_P B_P 
END_DATA_FORMAT

NUMBER_OF_SETS 32
BEGIN_DATA
0.000623758 0.000634181 0.00114684 
0.999376 0.999366 0.998853 
1.460559 1.582576 1.789586 
0.491501 0.433925 0.324176 
0.151469 0.192429 0.269683 
0.176962 0.177082 0.142112 
0.137508 0.137493 0.155880 
0.131491 0.0952548 0.107417 
0.104797 0.0819762 0.0912615 
0.0886953 0.0765429 0.0573963 
0.0758688 0.0742166 0.0589908 
0.0706386 0.0712766 0.0449625 
0.0617086 0.0638464 0.0446342 
0.0554785 0.0590214 0.0401032 
0.0487802 0.0454109 0.0350010 
0.0453624 0.0433896 0.0355564 
0.0407283 0.0369295 0.0325902 
0.0365467 0.0316857 0.0322789 
0.0369261 0.0311214 0.0343118 
0.0362062 0.0322983 0.0312860 
0.0347630 0.0376474 0.0336521 
0.0323321 0.0276534 0.0327290 
0.0338778 0.0254145 0.0311289 
0.0322593 0.0341284 0.0347896 
0.0247280 0.0215588 0.0320418 
0.0285170 0.0203598 0.0290878 
0.0328206 0.0248182 0.0373550 
0.0252485 0.0303586 0.0340970 
0.0237639 0.0286950 0.0304061 
0.0307040 0.0352473 0.0387726 
0.0275037 0.0350717 0.0385295 
0.0252945 0.0319657 0.0350341 
END_DATA
