cals/xps15-dpt94-05-25_11:39.cal
CAL    

DESCRIPTOR "Argyll Device Calibration Curves"
ORIGINATOR "Argyll dispcal"
CREATED "Wed May 25 14:24:05 2022"
DEVICE_CLASS "DISPLAY"
COLOR_REP "RGB"
VIDEO_LUT_CALIBRATION_POSSIBLE "YES"
TV_OUTPUT_ENCODING "NO"
TARGET_WHITE_XYZ "92.287841 97.098496 105.745869"
TARGET_GAMMA "2.400000"
DEGREE_OF_BLACK_OUTPUT_OFFSET "1.000000"
BLACK_POINT_CORRECTION "0.374546"
BLACK_NEUTRAL_BLEND_RATE "4.000000"
QUALITY "medium"

NUMBER_OF_FIELDS 4
BEGIN_DATA_FORMAT
RGB_I RGB_R RGB_G RGB_B 
END_DATA_FORMAT

NUMBER_OF_SETS 256
BEGIN_DATA
0.00000 0.0136603 0.0148310 0.00000 
0.00392157 0.0160101 0.0174313 0.00382450 
0.00784314 0.0184354 0.0200856 0.00857593 
0.0117647 0.0209401 0.0227956 0.0132562 
0.0156863 0.0235280 0.0255631 0.0178668 
0.0196078 0.0262034 0.0283898 0.0224094 
0.0235294 0.0289707 0.0312777 0.0268854 
0.0274510 0.0318348 0.0342289 0.0312963 
0.0313725 0.0348009 0.0372454 0.0356420 
0.0352941 0.0378745 0.0403294 0.0399175 
0.0392157 0.0410615 0.0434832 0.0441195 
0.0431373 0.0443684 0.0467092 0.0482436 
0.0470588 0.0478015 0.0500099 0.0522811 
0.0509804 0.0513535 0.0533888 0.0562333 
0.0549020 0.0550068 0.0568470 0.0601083 
0.0588235 0.0587439 0.0603762 0.0639170 
0.0627451 0.0625390 0.0639638 0.0676701 
0.0666667 0.0663741 0.0675985 0.0713804 
0.0705882 0.0702353 0.0712739 0.0750570 
0.0745098 0.0741109 0.0749915 0.0787099 
0.0784314 0.0779858 0.0787497 0.0823470 
0.0823529 0.0818484 0.0825388 0.0859769 
0.0862745 0.0856970 0.0863547 0.0896060 
0.0901961 0.0895373 0.0901902 0.0932423 
0.0941176 0.0933742 0.0940395 0.0968924 
0.0980392 0.0972106 0.0978960 0.100565 
0.101961 0.101052 0.101764 0.104268 
0.105882 0.104911 0.105646 0.107998 
0.109804 0.108792 0.109543 0.111753 
0.113725 0.112702 0.113459 0.115533 
0.117647 0.116636 0.117396 0.119333 
0.121569 0.120574 0.121358 0.123148 
0.125490 0.124512 0.125350 0.126984 
0.129412 0.128444 0.129364 0.130837 
0.133333 0.132366 0.133395 0.134705 
0.137255 0.136282 0.137440 0.138580 
0.141176 0.140189 0.141498 0.142464 
0.145098 0.144073 0.145560 0.146357 
0.149020 0.147923 0.149621 0.150254 
0.152941 0.151755 0.153674 0.154155 
0.156863 0.155571 0.157711 0.158051 
0.160784 0.159383 0.161727 0.161941 
0.164706 0.163195 0.165718 0.165830 
0.168627 0.167009 0.169687 0.169715 
0.172549 0.170837 0.173640 0.173590 
0.176471 0.174677 0.177577 0.177460 
0.180392 0.178530 0.181504 0.181332 
0.184314 0.182404 0.185428 0.185201 
0.188235 0.186295 0.189348 0.189061 
0.192157 0.190205 0.193268 0.192922 
0.196078 0.194121 0.197205 0.196789 
0.200000 0.198056 0.201176 0.200664 
0.203922 0.202004 0.205170 0.204557 
0.207843 0.205961 0.209194 0.208466 
0.211765 0.209925 0.213251 0.212387 
0.215686 0.213902 0.217337 0.216320 
0.219608 0.217886 0.221447 0.220268 
0.223529 0.221875 0.225572 0.224231 
0.227451 0.225873 0.229713 0.228206 
0.231373 0.229884 0.233855 0.232194 
0.235294 0.233891 0.238004 0.236202 
0.239216 0.237902 0.242155 0.240217 
0.243137 0.241917 0.246290 0.244232 
0.247059 0.245927 0.250399 0.248247 
0.250980 0.249929 0.254479 0.252261 
0.254902 0.253922 0.258532 0.256261 
0.258824 0.257898 0.262561 0.260246 
0.262745 0.261861 0.266583 0.264216 
0.266667 0.265812 0.270594 0.268175 
0.270588 0.269745 0.274592 0.272120 
0.274510 0.273661 0.278576 0.276058 
0.278431 0.277565 0.282547 0.279994 
0.282353 0.281474 0.286506 0.283927 
0.286275 0.285390 0.290448 0.287857 
0.290196 0.289316 0.294374 0.291774 
0.294118 0.293248 0.298284 0.295676 
0.298039 0.297188 0.302197 0.299575 
0.301961 0.301167 0.306110 0.303478 
0.305882 0.305184 0.310016 0.307388 
0.309804 0.309221 0.313918 0.311294 
0.313725 0.313271 0.317814 0.315197 
0.317647 0.317309 0.321706 0.319099 
0.321569 0.321332 0.325596 0.322995 
0.325490 0.325337 0.329479 0.326883 
0.329412 0.329318 0.333351 0.330764 
0.333333 0.333275 0.337212 0.334639 
0.337255 0.337198 0.341065 0.338505 
0.341176 0.341087 0.344912 0.342362 
0.345098 0.344947 0.348758 0.346209 
0.349020 0.348790 0.352600 0.350047 
0.352941 0.352610 0.356438 0.353872 
0.356863 0.356411 0.360272 0.357677 
0.360784 0.360200 0.364105 0.361469 
0.364706 0.363988 0.367936 0.365248 
0.368627 0.367783 0.371755 0.369005 
0.372549 0.371587 0.375563 0.372745 
0.376471 0.375402 0.379384 0.376472 
0.380392 0.379238 0.383213 0.380187 
0.384314 0.383083 0.387050 0.383896 
0.388235 0.386935 0.390889 0.387611 
0.392157 0.390781 0.394738 0.391336 
0.396078 0.394620 0.398588 0.395070 
0.400000 0.398453 0.402436 0.398812 
0.403922 0.402271 0.406282 0.402557 
0.407843 0.406049 0.410131 0.406300 
0.411765 0.409789 0.414006 0.410040 
0.415686 0.413551 0.417911 0.413777 
0.419608 0.417347 0.421837 0.417518 
0.423529 0.421165 0.425775 0.421271 
0.427451 0.424991 0.429723 0.425033 
0.431373 0.428825 0.433687 0.428804 
0.435294 0.432669 0.437670 0.432583 
0.439216 0.436526 0.441669 0.436367 
0.443137 0.440402 0.445680 0.440160 
0.447059 0.444300 0.449700 0.443965 
0.450980 0.448225 0.453717 0.447780 
0.454902 0.452169 0.457734 0.451604 
0.458824 0.456135 0.461753 0.455436 
0.462745 0.460127 0.465768 0.459283 
0.466667 0.464133 0.469772 0.463142 
0.470588 0.468148 0.473764 0.467005 
0.474510 0.472168 0.477751 0.470880 
0.478431 0.476196 0.481733 0.474765 
0.482353 0.480221 0.485706 0.478667 
0.486275 0.484251 0.489675 0.482590 
0.490196 0.488282 0.493637 0.486529 
0.494118 0.492306 0.497593 0.490485 
0.498039 0.496327 0.501543 0.494457 
0.501961 0.500346 0.505485 0.498445 
0.505882 0.504364 0.509428 0.502448 
0.509804 0.508383 0.513380 0.506459 
0.513725 0.512403 0.517340 0.510479 
0.517647 0.516418 0.521308 0.514507 
0.521569 0.520429 0.525284 0.518544 
0.525490 0.524434 0.529270 0.522594 
0.529412 0.528430 0.533266 0.526654 
0.533333 0.532421 0.537268 0.530717 
0.537255 0.536412 0.541280 0.534786 
0.541176 0.540400 0.545304 0.538858 
0.545098 0.544398 0.549333 0.542940 
0.549020 0.548406 0.553354 0.547031 
0.552941 0.552413 0.557388 0.551122 
0.556863 0.556430 0.561441 0.555207 
0.560784 0.560464 0.565502 0.559284 
0.564706 0.564520 0.569561 0.563353 
0.568627 0.568595 0.573613 0.567421 
0.572549 0.572690 0.577647 0.571484 
0.576471 0.576773 0.581675 0.575533 
0.580392 0.580849 0.585709 0.579564 
0.584314 0.584946 0.589746 0.583583 
0.588235 0.589051 0.593784 0.587604 
0.592157 0.593152 0.597824 0.591623 
0.596078 0.597244 0.601858 0.595639 
0.600000 0.601330 0.605884 0.599653 
0.603922 0.605412 0.609902 0.603673 
0.607843 0.609492 0.613904 0.607703 
0.611765 0.613563 0.617894 0.611743 
0.615686 0.617625 0.621881 0.615794 
0.619608 0.621682 0.625875 0.619847 
0.623529 0.625748 0.629873 0.623889 
0.627451 0.629825 0.633869 0.627921 
0.631373 0.633910 0.637857 0.631942 
0.635294 0.637988 0.641838 0.635943 
0.639216 0.642061 0.645813 0.639928 
0.643137 0.646124 0.649780 0.643903 
0.647059 0.650181 0.653734 0.647878 
0.650980 0.654232 0.657671 0.651859 
0.654902 0.658261 0.661582 0.655843 
0.658824 0.662240 0.665466 0.659828 
0.662745 0.666148 0.669325 0.663815 
0.666667 0.669985 0.673164 0.667803 
0.670588 0.673770 0.677027 0.671776 
0.674510 0.677585 0.680925 0.675731 
0.678431 0.681440 0.684858 0.679669 
0.682353 0.685335 0.688821 0.683586 
0.686275 0.689252 0.692799 0.687488 
0.690196 0.693169 0.696776 0.691382 
0.694118 0.697074 0.700739 0.695276 
0.698039 0.700969 0.704683 0.699179 
0.701961 0.704869 0.708611 0.703097 
0.705882 0.708765 0.712520 0.707030 
0.709804 0.712646 0.716405 0.710968 
0.713725 0.716514 0.720262 0.714911 
0.717647 0.720365 0.724084 0.718857 
0.721569 0.724209 0.727873 0.722803 
0.725490 0.728051 0.731636 0.726754 
0.729412 0.731884 0.735393 0.730704 
0.733333 0.735720 0.739159 0.734652 
0.737255 0.739558 0.742932 0.738609 
0.741176 0.743390 0.746717 0.742571 
0.745098 0.747217 0.750512 0.746538 
0.749020 0.751035 0.754318 0.750511 
0.752941 0.754844 0.758143 0.754478 
0.756863 0.758645 0.761991 0.758436 
0.760784 0.762436 0.765861 0.762385 
0.764706 0.766221 0.769753 0.766335 
0.768627 0.770007 0.773670 0.770288 
0.772549 0.773781 0.777621 0.774234 
0.776471 0.777549 0.781598 0.778169 
0.780392 0.781306 0.785587 0.782094 
0.784314 0.785049 0.789585 0.786010 
0.788235 0.788781 0.793588 0.789927 
0.792157 0.792517 0.797585 0.793851 
0.796078 0.796249 0.801566 0.797784 
0.800000 0.799957 0.805543 0.801721 
0.803922 0.803635 0.809538 0.805657 
0.807843 0.807331 0.813551 0.809590 
0.811765 0.811072 0.817575 0.813516 
0.815686 0.814852 0.821597 0.817441 
0.819608 0.818654 0.825613 0.821377 
0.823529 0.822476 0.829624 0.825322 
0.827451 0.826316 0.833626 0.829269 
0.831373 0.830170 0.837617 0.833214 
0.835294 0.834035 0.841604 0.837154 
0.839216 0.837911 0.845587 0.841085 
0.843137 0.841802 0.849565 0.845004 
0.847059 0.845708 0.853528 0.848913 
0.850980 0.849633 0.857467 0.852816 
0.854902 0.853579 0.861382 0.856706 
0.858824 0.857537 0.865290 0.860577 
0.862745 0.861505 0.869191 0.864424 
0.866667 0.865517 0.873074 0.868251 
0.870588 0.869565 0.876944 0.872068 
0.874510 0.873633 0.880798 0.875880 
0.878431 0.877734 0.884633 0.879688 
0.882353 0.881860 0.888453 0.883495 
0.886275 0.886008 0.892259 0.887307 
0.890196 0.890164 0.896055 0.891124 
0.894118 0.894325 0.899842 0.894943 
0.898039 0.898497 0.903613 0.898768 
0.901961 0.902664 0.907370 0.902606 
0.905882 0.906812 0.911104 0.906457 
0.909804 0.910924 0.914836 0.910314 
0.913725 0.915009 0.918571 0.914169 
0.917647 0.919068 0.922307 0.918024 
0.921569 0.923091 0.926042 0.921888 
0.925490 0.927072 0.929784 0.925754 
0.929412 0.931025 0.933524 0.929617 
0.933333 0.934945 0.937263 0.933481 
0.937255 0.938841 0.940997 0.937345 
0.941176 0.942723 0.944719 0.941214 
0.945098 0.946593 0.948431 0.945081 
0.949020 0.950455 0.952140 0.948947 
0.952941 0.954316 0.955846 0.952804 
0.956863 0.958178 0.959547 0.956656 
0.960784 0.962046 0.963240 0.960504 
0.964706 0.965919 0.966928 0.964350 
0.968627 0.969793 0.970612 0.968193 
0.972549 0.973661 0.974294 0.972028 
0.976471 0.977522 0.977972 0.975857 
0.980392 0.981377 0.981647 0.979679 
0.984314 0.985225 0.985318 0.983494 
0.988235 0.989067 0.988987 0.987303 
0.992157 0.992902 0.992652 0.991104 
0.996078 0.996731 0.996314 0.994898 
1.000000 1.000000 0.999972 0.998686 
END_DATA
CAL    

DESCRIPTOR "Argyll Calibration options and model"
ORIGINATOR "Argyll dispcal"
CREATED "Wed May 25 14:24:05 202"

NUMBER_OF_FIELDS 3
BEGIN_DATA_FORMAT
R_P G_P B_P 
END_DATA_FORMAT

NUMBER_OF_SETS 32
BEGIN_DATA
0.000298854 0.000724195 0.000796989 
0.999701 0.999276 0.999203 
1.771173 1.865082 1.781525 
0.593562 0.578918 0.426485 
0.0945377 0.0901702 0.172758 
0.107784 0.0835885 0.140117 
0.0867708 0.0806649 0.0989511 
0.0795493 0.107037 0.0836078 
0.0725958 0.0716488 0.0732597 
0.0707505 0.0844328 0.0653687 
0.0664228 0.0565707 0.0623033 
0.0599650 0.0554254 0.0567242 
0.0554830 0.0522559 0.0640083 
0.0533942 0.0529107 0.0587227 
0.0514109 0.0504369 0.0551788 
0.0481214 0.0506443 0.0550601 
0.0455234 0.0432194 0.0414563 
0.0432003 0.0465207 0.0443089 
0.0407183 0.0438084 0.0613142 
0.0387960 0.0420908 0.0321880 
0.0367160 0.0392144 0.0395128 
0.0340436 0.0418114 0.0392941 
0.0326848 0.0405308 0.0333379 
0.0314146 0.0345998 0.0315704 
0.0310270 0.0371004 0.0313834 
0.0291693 0.0342315 0.0304036 
0.0258527 0.0347692 0.0294861 
0.0265868 0.0342758 0.0267350 
0.0251182 0.0313451 0.0241914 
0.0231378 0.0293734 0.0228519 
0.0224975 0.0309845 0.0225774 
0.0205790 0.0312052 0.0246820 
END_DATA
