cals/xps15-spec-05-25_14:55.cal
CAL    

DESCRIPTOR "Argyll Device Calibration Curves"
ORIGINATOR "Argyll dispcal"
CREATED "Wed May 25 15:40:18 2022"
DEVICE_CLASS "DISPLAY"
COLOR_REP "RGB"
VIDEO_LUT_CALIBRATION_POSSIBLE "YES"
TV_OUTPUT_ENCODING "NO"
TARGET_WHITE_XYZ "90.597156 95.319682 103.808638"
TARGET_GAMMA "2.400000"
DEGREE_OF_BLACK_OUTPUT_OFFSET "1.000000"
BLACK_POINT_CORRECTION "0.415107"
BLACK_NEUTRAL_BLEND_RATE "4.000000"
QUALITY "medium"

NUMBER_OF_FIELDS 4
BEGIN_DATA_FORMAT
RGB_I RGB_R RGB_G RGB_B 
END_DATA_FORMAT

NUMBER_OF_SETS 256
BEGIN_DATA
0.00000 0.0189958 0.00905517 0.00000 
0.00392157 0.0218364 0.0121126 0.00000 
0.00784314 0.0246994 0.0151699 0.00134541 
0.0117647 0.0275850 0.0182269 0.00418130 
0.0156863 0.0304934 0.0212837 0.00707436 
0.0196078 0.0334251 0.0243403 0.0100263 
0.0235294 0.0363802 0.0273966 0.0130391 
0.0274510 0.0393590 0.0304527 0.0161144 
0.0313725 0.0423618 0.0335086 0.0192543 
0.0352941 0.0453890 0.0365643 0.0224609 
0.0392157 0.0484407 0.0396197 0.0257350 
0.0431373 0.0515173 0.0426746 0.0290588 
0.0470588 0.0546198 0.0457295 0.0324026 
0.0509804 0.0577508 0.0487875 0.0357441 
0.0549020 0.0609132 0.0518560 0.0390714 
0.0588235 0.0641106 0.0549422 0.0423766 
0.0627451 0.0673462 0.0580531 0.0456500 
0.0666667 0.0706210 0.0611912 0.0488825 
0.0705882 0.0739344 0.0643561 0.0520674 
0.0745098 0.0772851 0.0675475 0.0552071 
0.0784314 0.0806716 0.0707656 0.0583129 
0.0823529 0.0840926 0.0740124 0.0613934 
0.0862745 0.0875451 0.0772905 0.0644615 
0.0901961 0.0910243 0.0805990 0.0675284 
0.0941176 0.0945264 0.0839386 0.0706055 
0.0980392 0.0980469 0.0873106 0.0737021 
0.101961 0.101583 0.0907095 0.0768192 
0.105882 0.105128 0.0941313 0.0799567 
0.109804 0.108677 0.0975695 0.0831150 
0.113725 0.112225 0.101015 0.0862867 
0.117647 0.115769 0.104463 0.0894670 
0.121569 0.119309 0.107912 0.0926520 
0.125490 0.122845 0.111363 0.0958401 
0.129412 0.126379 0.114818 0.0990267 
0.133333 0.129913 0.118279 0.102209 
0.137255 0.133445 0.121749 0.105383 
0.141176 0.136976 0.125229 0.108543 
0.145098 0.140508 0.128727 0.111689 
0.149020 0.144044 0.132243 0.114829 
0.152941 0.147584 0.135781 0.117969 
0.156863 0.151132 0.139344 0.121118 
0.160784 0.154690 0.142934 0.124283 
0.164706 0.158261 0.146553 0.127467 
0.168627 0.161845 0.150204 0.130676 
0.172549 0.165446 0.153886 0.133912 
0.176471 0.169063 0.157596 0.137179 
0.180392 0.172697 0.161331 0.140474 
0.184314 0.176348 0.165084 0.143788 
0.188235 0.180015 0.168852 0.147116 
0.192157 0.183697 0.172628 0.150453 
0.196078 0.187398 0.176412 0.153793 
0.200000 0.191120 0.180201 0.157135 
0.203922 0.194861 0.183995 0.160473 
0.207843 0.198619 0.187796 0.163800 
0.211765 0.202399 0.191604 0.167113 
0.215686 0.206202 0.195413 0.170420 
0.219608 0.210028 0.199225 0.173723 
0.223529 0.213880 0.203041 0.177027 
0.227451 0.217754 0.206860 0.180335 
0.231373 0.221645 0.210689 0.183648 
0.235294 0.225552 0.214529 0.186962 
0.239216 0.229477 0.218381 0.190287 
0.243137 0.233421 0.222247 0.193625 
0.247059 0.237383 0.226125 0.196980 
0.250980 0.241369 0.230026 0.200354 
0.254902 0.245383 0.233951 0.203749 
0.258824 0.249421 0.237907 0.207163 
0.262745 0.253484 0.241891 0.210595 
0.266667 0.257573 0.245905 0.214044 
0.270588 0.261690 0.249940 0.217510 
0.274510 0.265835 0.253995 0.220987 
0.278431 0.269992 0.258069 0.224474 
0.282353 0.274158 0.262159 0.227977 
0.286275 0.278334 0.266264 0.231490 
0.290196 0.282516 0.270373 0.235015 
0.294118 0.286708 0.274478 0.238545 
0.298039 0.290907 0.278586 0.242079 
0.301961 0.295106 0.282692 0.245633 
0.305882 0.299303 0.286796 0.249196 
0.309804 0.303498 0.290904 0.252767 
0.313725 0.307696 0.295011 0.256342 
0.317647 0.311894 0.299117 0.259915 
0.321569 0.316090 0.303220 0.263488 
0.325490 0.320282 0.307320 0.267056 
0.329412 0.324475 0.311421 0.270625 
0.333333 0.328672 0.315524 0.274194 
0.337255 0.332872 0.319628 0.277761 
0.341176 0.337080 0.323735 0.281325 
0.345098 0.341296 0.327844 0.284889 
0.349020 0.345520 0.331945 0.288452 
0.352941 0.349748 0.336037 0.292017 
0.356863 0.353969 0.340118 0.295585 
0.360784 0.358176 0.344186 0.299156 
0.364706 0.362370 0.348246 0.302736 
0.368627 0.366549 0.352300 0.306324 
0.372549 0.370713 0.356352 0.309919 
0.376471 0.374861 0.360397 0.313513 
0.380392 0.378994 0.364435 0.317111 
0.384314 0.383116 0.368470 0.320706 
0.388235 0.387223 0.372499 0.324290 
0.392157 0.391317 0.376523 0.327872 
0.396078 0.395399 0.380546 0.331449 
0.400000 0.399470 0.384571 0.335004 
0.403922 0.403524 0.388598 0.338537 
0.407843 0.407561 0.392621 0.342080 
0.411765 0.411583 0.396642 0.345635 
0.415686 0.415599 0.400667 0.349189 
0.419608 0.419615 0.404690 0.352740 
0.423529 0.423634 0.408707 0.356304 
0.427451 0.427653 0.412720 0.359884 
0.431373 0.431665 0.416731 0.363477 
0.435294 0.435665 0.420739 0.367092 
0.439216 0.439657 0.424741 0.370726 
0.443137 0.443647 0.428744 0.374375 
0.447059 0.447636 0.432745 0.378038 
0.450980 0.451623 0.436747 0.381720 
0.454902 0.455607 0.440744 0.385405 
0.458824 0.459592 0.444732 0.389089 
0.462745 0.463581 0.448708 0.392768 
0.466667 0.467574 0.452676 0.396445 
0.470588 0.471564 0.456640 0.400128 
0.474510 0.475554 0.460596 0.403819 
0.478431 0.479544 0.464538 0.407513 
0.482353 0.483529 0.468464 0.411210 
0.486275 0.487509 0.472372 0.414915 
0.490196 0.491485 0.476263 0.418626 
0.494118 0.495458 0.480137 0.422345 
0.498039 0.499428 0.483997 0.426053 
0.501961 0.503396 0.487843 0.429734 
0.505882 0.507361 0.491668 0.433382 
0.509804 0.511329 0.495471 0.436999 
0.513725 0.515309 0.499253 0.440580 
0.517647 0.519295 0.503017 0.444127 
0.521569 0.523285 0.506769 0.447645 
0.525490 0.527280 0.510511 0.451133 
0.529412 0.531280 0.514241 0.454596 
0.533333 0.535283 0.517962 0.458040 
0.537255 0.539289 0.521680 0.461465 
0.541176 0.543297 0.525402 0.464876 
0.545098 0.547312 0.529128 0.468272 
0.549020 0.551328 0.532858 0.471660 
0.552941 0.555348 0.536594 0.475042 
0.556863 0.559375 0.540334 0.478425 
0.560784 0.563410 0.544077 0.481797 
0.564706 0.567449 0.547823 0.485154 
0.568627 0.571490 0.551568 0.488507 
0.572549 0.575532 0.555311 0.491849 
0.576471 0.579578 0.559051 0.495172 
0.580392 0.583630 0.562782 0.498484 
0.584314 0.587689 0.566506 0.501785 
0.588235 0.591755 0.570229 0.505084 
0.592157 0.595817 0.573950 0.508384 
0.596078 0.599876 0.577671 0.511694 
0.600000 0.603935 0.581392 0.515013 
0.603922 0.607993 0.585114 0.518340 
0.607843 0.612042 0.588833 0.521672 
0.611765 0.616079 0.592546 0.525017 
0.615686 0.620102 0.596255 0.528380 
0.619608 0.624110 0.599961 0.531764 
0.623529 0.628103 0.603670 0.535161 
0.627451 0.632080 0.607381 0.538565 
0.631373 0.636043 0.611090 0.541967 
0.635294 0.639995 0.614783 0.545374 
0.639216 0.643940 0.618457 0.548788 
0.643137 0.647873 0.622111 0.552203 
0.647059 0.651789 0.625747 0.555599 
0.650980 0.655685 0.629370 0.558957 
0.654902 0.659557 0.632981 0.562274 
0.658824 0.663410 0.636579 0.565555 
0.662745 0.667247 0.640164 0.568834 
0.666667 0.671068 0.643732 0.572121 
0.670588 0.674882 0.647282 0.575414 
0.674510 0.678706 0.650817 0.578701 
0.678431 0.682540 0.654345 0.581971 
0.682353 0.686385 0.657868 0.585218 
0.686275 0.690242 0.661388 0.588453 
0.690196 0.694110 0.664905 0.591689 
0.694118 0.697985 0.668420 0.594930 
0.698039 0.701862 0.671930 0.598166 
0.701961 0.705735 0.675437 0.601394 
0.705882 0.709602 0.678944 0.604611 
0.709804 0.713466 0.682457 0.607821 
0.713725 0.717331 0.685977 0.611031 
0.717647 0.721199 0.689502 0.614246 
0.721569 0.725077 0.693030 0.617455 
0.725490 0.728964 0.696562 0.620663 
0.729412 0.732860 0.700099 0.623864 
0.733333 0.736771 0.703644 0.627063 
0.737255 0.740697 0.707202 0.630264 
0.741176 0.744634 0.710773 0.633470 
0.745098 0.748585 0.714357 0.636683 
0.749020 0.752551 0.717952 0.639902 
0.752941 0.756527 0.721552 0.643125 
0.756863 0.760501 0.725156 0.646358 
0.760784 0.764471 0.728766 0.649597 
0.764706 0.768434 0.732376 0.652830 
0.768627 0.772390 0.735980 0.656061 
0.772549 0.776339 0.739579 0.659288 
0.776471 0.780284 0.743175 0.662512 
0.780392 0.784226 0.746771 0.665735 
0.784314 0.788161 0.750364 0.668965 
0.788235 0.792086 0.753953 0.672197 
0.792157 0.795995 0.757541 0.675416 
0.796078 0.799891 0.761133 0.678617 
0.800000 0.803775 0.764725 0.681825 
0.803922 0.807656 0.768315 0.685049 
0.807843 0.811538 0.771904 0.688282 
0.811765 0.815424 0.775496 0.691516 
0.815686 0.819312 0.779095 0.694760 
0.819608 0.823197 0.782691 0.698012 
0.823529 0.827072 0.786280 0.701271 
0.827451 0.830940 0.789865 0.704538 
0.831373 0.834802 0.793446 0.707816 
0.835294 0.838659 0.797018 0.711094 
0.839216 0.842516 0.800577 0.714368 
0.843137 0.846372 0.804129 0.717637 
0.847059 0.850231 0.807677 0.720910 
0.850980 0.854086 0.811225 0.724185 
0.854902 0.857939 0.814776 0.727450 
0.858824 0.861791 0.818330 0.730718 
0.862745 0.865643 0.821883 0.733987 
0.866667 0.869499 0.825439 0.737252 
0.870588 0.873353 0.829006 0.740522 
0.874510 0.877201 0.832582 0.743798 
0.878431 0.881046 0.836169 0.747078 
0.882353 0.884886 0.839767 0.750365 
0.886275 0.888722 0.843371 0.753646 
0.890196 0.892553 0.846981 0.756925 
0.894118 0.896386 0.850593 0.760204 
0.898039 0.900218 0.854208 0.763477 
0.901961 0.904047 0.857823 0.766745 
0.905882 0.907870 0.861436 0.770003 
0.909804 0.911688 0.865053 0.773253 
0.913725 0.915505 0.868675 0.776499 
0.917647 0.919323 0.872305 0.779740 
0.921569 0.923134 0.875940 0.782980 
0.925490 0.926938 0.879583 0.786222 
0.929412 0.930738 0.883228 0.789462 
0.933333 0.934532 0.886878 0.792696 
0.937255 0.938324 0.890532 0.795931 
0.941176 0.942113 0.894190 0.799169 
0.945098 0.945901 0.897856 0.802415 
0.949020 0.949689 0.901529 0.805668 
0.952941 0.953477 0.905212 0.808929 
0.956863 0.957268 0.908903 0.812194 
0.960784 0.961061 0.912603 0.815465 
0.964706 0.964858 0.916314 0.818741 
0.968627 0.968658 0.920033 0.822023 
0.972549 0.972460 0.923757 0.825305 
0.976471 0.976264 0.927484 0.828588 
0.980392 0.980070 0.931216 0.831870 
0.984314 0.983879 0.934952 0.835153 
0.988235 0.987690 0.938692 0.838435 
0.992157 0.991504 0.942436 0.841718 
0.996078 0.995320 0.946185 0.845000 
1.000000 0.999138 0.949937 0.848283 
END_DATA
CAL    

DESCRIPTOR "Argyll Calibration options and model"
ORIGINATOR "Argyll dispcal"
CREATED "Wed May 25 15:40:18 202"

NUMBER_OF_FIELDS 3
BEGIN_DATA_FORMAT
R_P G_P B_P 
END_DATA_FORMAT

NUMBER_OF_SETS 32
BEGIN_DATA
0.000276332 0.000628960 0.000649248 
0.999724 0.999371 0.999351 
1.869585 1.841904 1.806119 
0.566877 0.685933 0.446827 
0.164675 0.0829987 0.184350 
0.0781215 0.0633361 0.142986 
0.0789849 0.0918389 0.0985733 
0.0792080 0.0906600 0.0811357 
0.0620994 0.0570736 0.0695777 
0.0737158 0.0598251 0.0611893 
0.0701129 0.0590386 0.0599045 
0.0431326 0.0569557 0.0542244 
0.0486155 0.0537019 0.0618571 
0.0481950 0.0520627 0.0573166 
0.0434672 0.0515478 0.0539386 
0.0431662 0.0498015 0.0541664 
0.0437504 0.0475142 0.0400995 
0.0413735 0.0448989 0.0431138 
0.0393136 0.0449297 0.0615364 
0.0394036 0.0381026 0.0307087 
0.0371709 0.0380362 0.0389328 
0.0344941 0.0424814 0.0386569 
0.0318508 0.0361117 0.0323152 
0.0331848 0.0350033 0.0313546 
0.0306305 0.0380398 0.0305773 
0.0294582 0.0330129 0.0295565 
0.0261200 0.0354741 0.0294613 
0.0266337 0.0342073 0.0260951 
0.0259791 0.0308499 0.0234135 
0.0241984 0.0286269 0.0226175 
0.0234760 0.0309472 0.0222868 
0.0221212 0.0319005 0.0245142 
END_DATA
