06-20_10:15-horiz.cal
CAL    

DESCRIPTOR "Argyll Device Calibration Curves"
ORIGINATOR "Argyll dispcal"
CREATED "Mon Jun 20 15:04:16 2022"
DEVICE_CLASS "DISPLAY"
COLOR_REP "RGB"
VIDEO_LUT_CALIBRATION_POSSIBLE "YES"
TV_OUTPUT_ENCODING "NO"
TARGET_WHITE_XYZ "134.500178 141.511220 154.113891"
TARGET_GAMMA "2.400000"
DEGREE_OF_BLACK_OUTPUT_OFFSET "1.000000"
BLACK_POINT_CORRECTION "0.406126"
BLACK_NEUTRAL_BLEND_RATE "4.000000"
QUALITY "medium"

NUMBER_OF_FIELDS 4
BEGIN_DATA_FORMAT
RGB_I RGB_R RGB_G RGB_B 
END_DATA_FORMAT

NUMBER_OF_SETS 256
BEGIN_DATA
0.00000 0.00000 0.00000 0.00000 
0.00392157 0.0000127009 0.00150757 0.00000 
0.00784314 0.00200752 0.00357795 0.00000 
0.0117647 0.00407590 0.00572313 0.00000 
0.0156863 0.00622197 0.00794722 0.00000 
0.0196078 0.00845022 0.0102547 0.00151527 
0.0235294 0.0107654 0.0126503 0.00354873 
0.0274510 0.0131728 0.0151391 0.00568190 
0.0313725 0.0156780 0.0177268 0.00792230 
0.0352941 0.0182870 0.0204194 0.0102782 
0.0392157 0.0210065 0.0232233 0.0127589 
0.0431373 0.0238437 0.0261456 0.0153743 
0.0470588 0.0268062 0.0291940 0.0181360 
0.0509804 0.0299027 0.0323768 0.0210564 
0.0549020 0.0331415 0.0357022 0.0241498 
0.0588235 0.0365227 0.0391681 0.0274297 
0.0627451 0.0400414 0.0427658 0.0308957 
0.0666667 0.0436869 0.0464818 0.0345360 
0.0705882 0.0474428 0.0503038 0.0383318 
0.0745098 0.0512938 0.0542135 0.0422599 
0.0784314 0.0552222 0.0581913 0.0462962 
0.0823529 0.0592093 0.0622203 0.0504133 
0.0862745 0.0632375 0.0662869 0.0545768 
0.0901961 0.0672917 0.0703738 0.0587584 
0.0941176 0.0713680 0.0744810 0.0629372 
0.0980392 0.0754592 0.0786024 0.0671105 
0.101961 0.0795626 0.0827399 0.0712822 
0.105882 0.0836822 0.0869021 0.0754540 
0.109804 0.0878153 0.0910828 0.0796399 
0.113725 0.0919715 0.0952871 0.0838544 
0.117647 0.0961493 0.0995154 0.0880876 
0.121569 0.100356 0.103780 0.0923499 
0.125490 0.104580 0.108062 0.0966255 
0.129412 0.108821 0.112358 0.100911 
0.133333 0.113071 0.116669 0.105198 
0.137255 0.117320 0.120982 0.109476 
0.141176 0.121570 0.125292 0.113747 
0.145098 0.125820 0.129600 0.118009 
0.149020 0.130042 0.133875 0.122237 
0.152941 0.134240 0.138112 0.126448 
0.156863 0.138407 0.142309 0.130640 
0.160784 0.142563 0.146483 0.134828 
0.164706 0.146691 0.150637 0.138980 
0.168627 0.150780 0.154755 0.143102 
0.172549 0.154842 0.158842 0.147211 
0.176471 0.158870 0.162899 0.151299 
0.180392 0.162872 0.166928 0.155379 
0.184314 0.166863 0.170950 0.159443 
0.188235 0.170832 0.174959 0.163479 
0.192157 0.174776 0.178944 0.167467 
0.196078 0.178693 0.182898 0.171435 
0.200000 0.182601 0.186835 0.175378 
0.203922 0.186489 0.190751 0.179289 
0.207843 0.190352 0.194633 0.183165 
0.211765 0.194191 0.198482 0.187024 
0.215686 0.198028 0.202311 0.190858 
0.219608 0.201855 0.206137 0.194652 
0.223529 0.205658 0.209950 0.198408 
0.227451 0.209441 0.213748 0.202128 
0.231373 0.213193 0.217537 0.205798 
0.235294 0.216914 0.221301 0.209457 
0.239216 0.220635 0.225047 0.213113 
0.243137 0.224353 0.228799 0.216756 
0.247059 0.228058 0.232549 0.220383 
0.250980 0.231748 0.236292 0.224002 
0.254902 0.235428 0.240030 0.227608 
0.258824 0.239092 0.243761 0.231203 
0.262745 0.242745 0.247483 0.234802 
0.266667 0.246400 0.251202 0.238394 
0.270588 0.250040 0.254934 0.241966 
0.274510 0.253657 0.258656 0.245513 
0.278431 0.257251 0.262362 0.249034 
0.282353 0.260819 0.266050 0.252544 
0.286275 0.264367 0.269713 0.256039 
0.290196 0.267895 0.273355 0.259507 
0.294118 0.271399 0.276973 0.262932 
0.298039 0.274869 0.280564 0.266313 
0.301961 0.278308 0.284117 0.269703 
0.305882 0.281761 0.287635 0.273122 
0.309804 0.285239 0.291160 0.276555 
0.313725 0.288729 0.294699 0.279987 
0.317647 0.292223 0.298240 0.283421 
0.321569 0.295721 0.301783 0.286839 
0.325490 0.299212 0.305327 0.290244 
0.329412 0.302700 0.308859 0.293648 
0.333333 0.306187 0.312384 0.297039 
0.337255 0.309666 0.315900 0.300423 
0.341176 0.313135 0.319396 0.303794 
0.345098 0.316586 0.322876 0.307147 
0.349020 0.320016 0.326338 0.310485 
0.352941 0.323425 0.329780 0.313823 
0.356863 0.326833 0.333204 0.317152 
0.360784 0.330243 0.336629 0.320463 
0.364706 0.333656 0.340064 0.323758 
0.368627 0.337073 0.343514 0.327037 
0.372549 0.340494 0.346981 0.330304 
0.376471 0.343918 0.350468 0.333564 
0.380392 0.347345 0.353975 0.336826 
0.384314 0.350778 0.357495 0.340083 
0.388235 0.354205 0.361030 0.343343 
0.392157 0.357646 0.364564 0.346629 
0.396078 0.361106 0.368106 0.349931 
0.400000 0.364578 0.371663 0.353255 
0.403922 0.368064 0.375230 0.356592 
0.407843 0.371549 0.378808 0.359938 
0.411765 0.375033 0.382381 0.363300 
0.415686 0.378518 0.385945 0.366670 
0.419608 0.381994 0.389503 0.370028 
0.423529 0.385442 0.393048 0.373355 
0.427451 0.388857 0.396565 0.376664 
0.431373 0.392266 0.400045 0.380012 
0.435294 0.395705 0.403512 0.383411 
0.439216 0.399174 0.407012 0.386853 
0.443137 0.402659 0.410547 0.390316 
0.447059 0.406149 0.414106 0.393789 
0.450980 0.409640 0.417681 0.397276 
0.454902 0.413130 0.421271 0.400785 
0.458824 0.416623 0.424873 0.404314 
0.462745 0.420123 0.428493 0.407849 
0.466667 0.423623 0.432133 0.411384 
0.470588 0.427124 0.435794 0.414923 
0.474510 0.430616 0.439474 0.418453 
0.478431 0.434096 0.443165 0.422008 
0.482353 0.437593 0.446854 0.425598 
0.486275 0.441110 0.450566 0.429211 
0.490196 0.444636 0.454296 0.432830 
0.494118 0.448168 0.458033 0.436444 
0.498039 0.451697 0.461769 0.440072 
0.501961 0.455231 0.465497 0.443692 
0.505882 0.458762 0.469224 0.447311 
0.509804 0.462292 0.472940 0.450929 
0.513725 0.465821 0.476647 0.454546 
0.517647 0.469346 0.480342 0.458157 
0.521569 0.472865 0.484025 0.461762 
0.525490 0.476378 0.487701 0.465361 
0.529412 0.479885 0.491372 0.468955 
0.533333 0.483387 0.495038 0.472550 
0.537255 0.486885 0.498700 0.476161 
0.541176 0.490406 0.502362 0.479764 
0.545098 0.493944 0.506055 0.483355 
0.549020 0.497496 0.509772 0.486935 
0.552941 0.501062 0.513511 0.490503 
0.556863 0.504641 0.517274 0.494063 
0.560784 0.508233 0.521059 0.497615 
0.564706 0.511841 0.524864 0.501164 
0.568627 0.515466 0.528684 0.504698 
0.572549 0.519111 0.532523 0.508231 
0.576471 0.522774 0.536380 0.511756 
0.580392 0.526457 0.540257 0.515257 
0.584314 0.530151 0.544149 0.518756 
0.588235 0.533847 0.548042 0.522266 
0.592157 0.537569 0.551953 0.525784 
0.596078 0.541311 0.555881 0.529301 
0.600000 0.545071 0.559824 0.532814 
0.603922 0.548838 0.563780 0.536311 
0.607843 0.552607 0.567748 0.539775 
0.611765 0.556359 0.571709 0.543253 
0.615686 0.560114 0.575678 0.546785 
0.619608 0.563924 0.579709 0.550356 
0.623529 0.567784 0.583800 0.553954 
0.627451 0.571680 0.587936 0.557581 
0.631373 0.575605 0.592101 0.561252 
0.635294 0.579565 0.596295 0.564969 
0.639216 0.583553 0.600518 0.568739 
0.643137 0.587573 0.604778 0.572553 
0.647059 0.591629 0.609088 0.576406 
0.650980 0.595718 0.613448 0.580296 
0.654902 0.599835 0.617847 0.584218 
0.658824 0.603979 0.622290 0.588196 
0.662745 0.608159 0.626781 0.592222 
0.666667 0.612371 0.631306 0.596286 
0.670588 0.616596 0.635846 0.600379 
0.674510 0.620835 0.640407 0.604506 
0.678431 0.625091 0.644990 0.608654 
0.682353 0.629362 0.649595 0.612825 
0.686275 0.633635 0.654201 0.616988 
0.690196 0.637886 0.658777 0.621104 
0.694118 0.642087 0.663296 0.625141 
0.698039 0.646226 0.667756 0.629099 
0.701961 0.650305 0.672190 0.633012 
0.705882 0.654389 0.676705 0.637016 
0.709804 0.658560 0.681311 0.641134 
0.713725 0.662821 0.685995 0.645365 
0.717647 0.667161 0.690719 0.649678 
0.721569 0.671550 0.695449 0.654032 
0.725490 0.675958 0.700179 0.658408 
0.729412 0.680375 0.704914 0.662806 
0.733333 0.684806 0.709637 0.667233 
0.737255 0.689243 0.714337 0.671672 
0.741176 0.693682 0.719007 0.676126 
0.745098 0.698117 0.723652 0.680584 
0.749020 0.702542 0.728270 0.685025 
0.752941 0.706953 0.732851 0.689435 
0.756863 0.711337 0.737417 0.693843 
0.760784 0.715723 0.741960 0.698255 
0.764706 0.720111 0.746488 0.702654 
0.768627 0.724501 0.751008 0.707045 
0.772549 0.728896 0.755519 0.711432 
0.776471 0.733297 0.760019 0.715818 
0.780392 0.737706 0.764506 0.720187 
0.784314 0.742108 0.768984 0.724542 
0.788235 0.746506 0.773453 0.728878 
0.792157 0.750897 0.777924 0.733194 
0.796078 0.755281 0.782392 0.737501 
0.800000 0.759658 0.786850 0.741781 
0.803922 0.764013 0.791299 0.746034 
0.807843 0.768342 0.795720 0.750264 
0.811765 0.772640 0.800082 0.754437 
0.815686 0.776878 0.804381 0.758533 
0.819608 0.781041 0.808697 0.762613 
0.823529 0.785167 0.813053 0.766747 
0.827451 0.789314 0.817431 0.770918 
0.831373 0.793476 0.821807 0.775096 
0.835294 0.797631 0.826181 0.779272 
0.839216 0.801773 0.830543 0.783427 
0.843137 0.805897 0.834892 0.787570 
0.847059 0.810001 0.839230 0.791698 
0.850980 0.814085 0.843561 0.795809 
0.854902 0.818154 0.847884 0.799882 
0.858824 0.822211 0.852206 0.803925 
0.862745 0.826257 0.856516 0.807935 
0.866667 0.830298 0.860793 0.811889 
0.870588 0.834319 0.865090 0.815797 
0.874510 0.838311 0.869430 0.819742 
0.878431 0.842339 0.873796 0.823716 
0.882353 0.846417 0.878185 0.827693 
0.886275 0.850525 0.882579 0.831683 
0.890196 0.854667 0.886974 0.835676 
0.894118 0.858832 0.891370 0.839669 
0.898039 0.863012 0.895777 0.843634 
0.901961 0.867195 0.900218 0.847592 
0.905882 0.871390 0.904675 0.851572 
0.909804 0.875630 0.909133 0.855552 
0.913725 0.879895 0.913582 0.859522 
0.917647 0.884173 0.918044 0.863460 
0.921569 0.888454 0.922514 0.867389 
0.925490 0.892763 0.926975 0.871325 
0.929412 0.897106 0.931429 0.875260 
0.933333 0.901471 0.935867 0.879193 
0.937255 0.905864 0.940271 0.883144 
0.941176 0.910289 0.944638 0.887099 
0.945098 0.914734 0.948957 0.891076 
0.949020 0.919203 0.953221 0.895074 
0.952941 0.923692 0.957432 0.899106 
0.956863 0.928196 0.961588 0.903169 
0.960784 0.932714 0.965685 0.907267 
0.964706 0.937236 0.969726 0.911404 
0.968627 0.941750 0.973714 0.915580 
0.972549 0.946246 0.977651 0.919793 
0.976471 0.950716 0.981538 0.924036 
0.980392 0.955160 0.985376 0.928311 
0.984314 0.959578 0.989167 0.932618 
0.988235 0.963971 0.992910 0.936956 
0.992157 0.968338 0.996607 0.941327 
0.996078 0.972679 1.000000 0.945730 
1.000000 0.976996 1.000000 0.950166 
END_DATA
CAL    

DESCRIPTOR "Argyll Calibration options and model"
ORIGINATOR "Argyll dispcal"
CREATED "Mon Jun 20 15:04:16 202"

NUMBER_OF_FIELDS 3
BEGIN_DATA_FORMAT
R_P G_P B_P 
END_DATA_FORMAT

NUMBER_OF_SETS 32
BEGIN_DATA
0.000476762 0.000687614 0.00138333 
0.999523 0.999312 0.998617 
1.555127 1.447384 1.620600 
0.542416 0.488779 0.345761 
0.144573 0.157996 0.207563 
0.135626 0.147275 0.177086 
0.114557 0.155331 0.128178 
0.111562 0.106340 0.120216 
0.0912518 0.110575 0.0899562 
0.0931166 0.0899991 0.100342 
0.0792773 0.0802914 0.0655932 
0.0830489 0.0775752 0.0840300 
0.0697118 0.0505920 0.0643295 
0.0604056 0.0619536 0.0741878 
0.0542987 0.0587702 0.0540904 
0.0499315 0.0559956 0.0663372 
0.0456787 0.0493720 0.0451049 
0.0460997 0.0469624 0.0522080 
0.0425157 0.0449345 0.0541665 
0.0380841 0.0461837 0.0401148 
0.0375842 0.0407556 0.0424211 
0.0346986 0.0366737 0.0398649 
0.0319522 0.0354393 0.0369298 
0.0298912 0.0331017 0.0340786 
0.0280442 0.0320582 0.0322972 
0.0261041 0.0314085 0.0324855 
0.0241886 0.0312167 0.0308006 
0.0227461 0.0289424 0.0283625 
0.0215064 0.0293256 0.0250221 
0.0202184 0.0280200 0.0258627 
0.0183975 0.0265795 0.0212586 
0.0176011 0.0256888 0.0272797 
END_DATA
