06-20_11:41-vert.cal
CAL    

DESCRIPTOR "Argyll Device Calibration Curves"
ORIGINATOR "Argyll dispcal"
CREATED "Mon Jun 20 18:23:08 2022"
DEVICE_CLASS "DISPLAY"
COLOR_REP "RGB"
VIDEO_LUT_CALIBRATION_POSSIBLE "YES"
TV_OUTPUT_ENCODING "NO"
TARGET_WHITE_XYZ "134.556389 141.570361 154.178299"
TARGET_GAMMA "2.400000"
DEGREE_OF_BLACK_OUTPUT_OFFSET "1.000000"
BLACK_POINT_CORRECTION "0.181763"
BLACK_NEUTRAL_BLEND_RATE "4.000000"
QUALITY "medium"

NUMBER_OF_FIELDS 4
BEGIN_DATA_FORMAT
RGB_I RGB_R RGB_G RGB_B 
END_DATA_FORMAT

NUMBER_OF_SETS 256
BEGIN_DATA
0.00000 0.00598812 0.00149014 0.00000 
0.00392157 0.00976130 0.00530233 0.00000 
0.00784314 0.0135385 0.00911726 0.000891416 
0.0117647 0.0173198 0.0129349 0.00352170 
0.0156863 0.0211051 0.0167553 0.00620492 
0.0196078 0.0248946 0.0205785 0.00894269 
0.0235294 0.0286880 0.0244044 0.0117367 
0.0274510 0.0324856 0.0282331 0.0145887 
0.0313725 0.0362872 0.0320646 0.0175005 
0.0352941 0.0400930 0.0358986 0.0204740 
0.0392157 0.0438996 0.0397318 0.0235112 
0.0431373 0.0477008 0.0435599 0.0266141 
0.0470588 0.0514954 0.0473767 0.0297852 
0.0509804 0.0552783 0.0511738 0.0330285 
0.0549020 0.0590408 0.0549483 0.0363458 
0.0588235 0.0627804 0.0586941 0.0397402 
0.0627451 0.0664984 0.0624058 0.0432070 
0.0666667 0.0701986 0.0660866 0.0467451 
0.0705882 0.0738734 0.0697322 0.0503457 
0.0745098 0.0775320 0.0733496 0.0539955 
0.0784314 0.0811795 0.0769372 0.0576866 
0.0823529 0.0848095 0.0804927 0.0614121 
0.0862745 0.0884303 0.0840288 0.0651670 
0.0901961 0.0920437 0.0875477 0.0689469 
0.0941176 0.0956444 0.0910521 0.0727477 
0.0980392 0.0992342 0.0945438 0.0765661 
0.101961 0.102834 0.0980360 0.0803970 
0.105882 0.106450 0.101527 0.0842316 
0.109804 0.110082 0.105017 0.0880691 
0.113725 0.113725 0.108509 0.0918944 
0.117647 0.117369 0.112004 0.0957082 
0.121569 0.121024 0.115504 0.0995113 
0.125490 0.124705 0.119022 0.103311 
0.129412 0.128409 0.122555 0.107114 
0.133333 0.132130 0.126099 0.110921 
0.137255 0.135858 0.129652 0.114737 
0.141176 0.139590 0.133212 0.118569 
0.145098 0.143322 0.136778 0.122417 
0.149020 0.147042 0.140351 0.126272 
0.152941 0.150751 0.143921 0.130128 
0.156863 0.154484 0.147490 0.133979 
0.160784 0.158252 0.151085 0.137829 
0.164706 0.162047 0.154706 0.141669 
0.168627 0.165857 0.158343 0.145489 
0.172549 0.169683 0.161990 0.149282 
0.176471 0.173530 0.165646 0.153044 
0.180392 0.177385 0.169309 0.156762 
0.184314 0.181246 0.172978 0.160439 
0.188235 0.185109 0.176650 0.164087 
0.192157 0.188977 0.180331 0.167711 
0.196078 0.192842 0.184026 0.171318 
0.200000 0.196695 0.187733 0.174905 
0.203922 0.200525 0.191451 0.178489 
0.207843 0.204335 0.195175 0.182068 
0.211765 0.208127 0.198892 0.185636 
0.215686 0.211938 0.202600 0.189195 
0.219608 0.215790 0.206312 0.192750 
0.223529 0.219683 0.210049 0.196306 
0.227451 0.223608 0.213806 0.199849 
0.231373 0.227553 0.217571 0.203376 
0.235294 0.231517 0.221341 0.206894 
0.239216 0.235485 0.225113 0.210396 
0.243137 0.239450 0.228888 0.213880 
0.247059 0.243416 0.232661 0.217358 
0.250980 0.247380 0.236427 0.220836 
0.254902 0.251335 0.240197 0.224310 
0.258824 0.255279 0.243963 0.227780 
0.262745 0.259204 0.247728 0.231250 
0.266667 0.263103 0.251497 0.234720 
0.270588 0.266985 0.255267 0.238189 
0.274510 0.270850 0.259033 0.241661 
0.278431 0.274701 0.262797 0.245129 
0.282353 0.278533 0.266559 0.248599 
0.286275 0.282345 0.270320 0.252071 
0.290196 0.286163 0.274079 0.255547 
0.294118 0.289991 0.277835 0.259018 
0.298039 0.293826 0.281600 0.262485 
0.301961 0.297659 0.285368 0.265942 
0.305882 0.301491 0.289136 0.269376 
0.309804 0.305323 0.292903 0.272781 
0.313725 0.309158 0.296665 0.276158 
0.317647 0.312997 0.300418 0.279534 
0.321569 0.316839 0.304165 0.282912 
0.325490 0.320672 0.307907 0.286290 
0.329412 0.324479 0.311648 0.289666 
0.333333 0.328247 0.315382 0.293044 
0.337255 0.331968 0.319108 0.296418 
0.341176 0.335640 0.322821 0.299781 
0.345098 0.339264 0.326511 0.303133 
0.349020 0.342844 0.330169 0.306472 
0.352941 0.346437 0.333794 0.309803 
0.356863 0.350073 0.337386 0.313123 
0.360784 0.353758 0.340974 0.316432 
0.364706 0.357494 0.344595 0.319730 
0.368627 0.361284 0.348249 0.323017 
0.372549 0.365117 0.351935 0.326303 
0.376471 0.368982 0.355644 0.329588 
0.380392 0.372871 0.359364 0.332872 
0.384314 0.376774 0.363087 0.336155 
0.388235 0.380690 0.366809 0.339440 
0.392157 0.384622 0.370532 0.342727 
0.396078 0.388558 0.374254 0.346016 
0.400000 0.392496 0.377972 0.349303 
0.403922 0.396439 0.381684 0.352592 
0.407843 0.400394 0.385386 0.355898 
0.411765 0.404356 0.389080 0.359218 
0.415686 0.408325 0.392772 0.362550 
0.419608 0.412287 0.396470 0.365891 
0.423529 0.416235 0.400165 0.369241 
0.427451 0.420169 0.403853 0.372600 
0.431373 0.424086 0.407537 0.375967 
0.435294 0.427992 0.411219 0.379333 
0.439216 0.431881 0.414898 0.382690 
0.443137 0.435746 0.418570 0.386035 
0.447059 0.439592 0.422235 0.389390 
0.450980 0.443455 0.425894 0.392770 
0.454902 0.447343 0.429548 0.396176 
0.458824 0.451243 0.433190 0.399605 
0.462745 0.455150 0.436838 0.403052 
0.466667 0.459050 0.440510 0.406510 
0.470588 0.462929 0.444201 0.409975 
0.474510 0.466794 0.447902 0.413456 
0.478431 0.470663 0.451616 0.416953 
0.482353 0.474526 0.455341 0.420457 
0.486275 0.478376 0.459074 0.423972 
0.490196 0.482225 0.462820 0.427496 
0.494118 0.486072 0.466587 0.431032 
0.498039 0.489924 0.470365 0.434594 
0.501961 0.493785 0.474148 0.438186 
0.505882 0.497659 0.477945 0.441802 
0.509804 0.501547 0.481751 0.445427 
0.513725 0.505446 0.485562 0.449053 
0.517647 0.509345 0.489373 0.452678 
0.521569 0.513241 0.493178 0.456299 
0.525490 0.517173 0.496976 0.459917 
0.529412 0.521143 0.500767 0.463524 
0.533333 0.525151 0.504552 0.467115 
0.537255 0.529198 0.508332 0.470681 
0.541176 0.533279 0.512114 0.474219 
0.545098 0.537389 0.515899 0.477731 
0.549020 0.541520 0.519688 0.481217 
0.552941 0.545673 0.523480 0.484675 
0.556863 0.549834 0.527280 0.488114 
0.560784 0.554010 0.531092 0.491553 
0.564706 0.558195 0.534924 0.494993 
0.568627 0.562377 0.538778 0.498434 
0.572549 0.566550 0.542659 0.501876 
0.576471 0.570740 0.546567 0.505322 
0.580392 0.574954 0.550513 0.508778 
0.584314 0.579180 0.554492 0.512251 
0.588235 0.583406 0.558501 0.515750 
0.592157 0.587631 0.562527 0.519269 
0.596078 0.591863 0.566588 0.522808 
0.600000 0.596109 0.570686 0.526362 
0.603922 0.600357 0.574810 0.529929 
0.607843 0.604590 0.578951 0.533524 
0.611765 0.608804 0.583104 0.537147 
0.615686 0.613010 0.587266 0.540792 
0.619608 0.617255 0.591436 0.544462 
0.623529 0.621551 0.595621 0.548151 
0.627451 0.625891 0.599815 0.551851 
0.631373 0.630257 0.604008 0.555564 
0.635294 0.634644 0.608204 0.559322 
0.639216 0.639038 0.612435 0.563131 
0.643137 0.643436 0.616706 0.566983 
0.647059 0.647828 0.621006 0.570867 
0.650980 0.652241 0.625323 0.574782 
0.654902 0.656678 0.629653 0.578733 
0.658824 0.661133 0.633993 0.582711 
0.662745 0.665606 0.638339 0.586714 
0.666667 0.670093 0.642686 0.590749 
0.670588 0.674584 0.647040 0.594817 
0.674510 0.679055 0.651411 0.598911 
0.678431 0.683497 0.655794 0.603026 
0.682353 0.687935 0.660190 0.607159 
0.686275 0.692369 0.664590 0.611304 
0.690196 0.696788 0.668996 0.615461 
0.694118 0.701193 0.673408 0.619640 
0.698039 0.705579 0.677817 0.623824 
0.701961 0.709959 0.682224 0.628000 
0.705882 0.714332 0.686628 0.632158 
0.709804 0.718695 0.691024 0.636285 
0.713725 0.723037 0.695403 0.640377 
0.717647 0.727359 0.699754 0.644435 
0.721569 0.731700 0.704082 0.648461 
0.725490 0.736082 0.708400 0.652490 
0.729412 0.740489 0.712709 0.656537 
0.733333 0.744908 0.717006 0.660609 
0.737255 0.749356 0.721276 0.664704 
0.741176 0.753832 0.725539 0.668814 
0.745098 0.758328 0.729822 0.672924 
0.749020 0.762818 0.734117 0.677026 
0.752941 0.767318 0.738423 0.681124 
0.756863 0.771842 0.742738 0.685220 
0.760784 0.776397 0.747075 0.689312 
0.764706 0.780992 0.751435 0.693398 
0.768627 0.785613 0.755817 0.697472 
0.772549 0.790244 0.760215 0.701521 
0.776471 0.794912 0.764627 0.705537 
0.780392 0.799624 0.769051 0.709522 
0.784314 0.804370 0.773481 0.713496 
0.788235 0.809142 0.777915 0.717459 
0.792157 0.813910 0.782341 0.721421 
0.796078 0.818679 0.786747 0.725380 
0.800000 0.823454 0.791155 0.729337 
0.803922 0.828221 0.795571 0.733287 
0.807843 0.832979 0.799991 0.737232 
0.811765 0.837757 0.804410 0.741180 
0.815686 0.842550 0.808828 0.745133 
0.819608 0.847337 0.813251 0.749089 
0.823529 0.852122 0.817679 0.753045 
0.827451 0.856903 0.822112 0.757000 
0.831373 0.861674 0.826542 0.760955 
0.835294 0.866439 0.830981 0.764916 
0.839216 0.871166 0.835432 0.768877 
0.843137 0.875865 0.839881 0.772826 
0.847059 0.880529 0.844323 0.776756 
0.850980 0.885173 0.848755 0.780676 
0.854902 0.889781 0.853179 0.784621 
0.858824 0.894351 0.857602 0.788606 
0.862745 0.898895 0.862039 0.792629 
0.866667 0.903404 0.866479 0.796687 
0.870588 0.907871 0.870916 0.800764 
0.874510 0.912305 0.875353 0.804854 
0.878431 0.916711 0.879796 0.808951 
0.882353 0.921089 0.884253 0.813056 
0.886275 0.925421 0.888716 0.817185 
0.890196 0.929708 0.893184 0.821348 
0.894118 0.933943 0.897659 0.825557 
0.898039 0.938118 0.902131 0.829804 
0.901961 0.942219 0.906597 0.834081 
0.905882 0.946235 0.911049 0.838421 
0.909804 0.950151 0.915492 0.842847 
0.913725 0.953956 0.919931 0.847360 
0.917647 0.957646 0.924369 0.851967 
0.921569 0.961219 0.928810 0.856668 
0.925490 0.964671 0.933259 0.861458 
0.929412 0.968003 0.937711 0.866339 
0.933333 0.971217 0.942161 0.871345 
0.937255 0.974316 0.946616 0.876466 
0.941176 0.977306 0.951066 0.881695 
0.945098 0.980194 0.955497 0.887043 
0.949020 0.982986 0.959894 0.892544 
0.952941 0.985687 0.964242 0.898176 
0.956863 0.988300 0.968521 0.903933 
0.960784 0.990831 0.972717 0.909797 
0.964706 0.993283 0.976816 0.915757 
0.968627 0.995659 0.980804 0.921799 
0.972549 0.997963 0.984685 0.927918 
0.976471 1.000000 0.988461 0.934110 
0.980392 1.000000 0.992138 0.940380 
0.984314 1.000000 0.995719 0.946734 
0.988235 1.000000 0.999207 0.953177 
0.992157 1.000000 1.000000 0.959710 
0.996078 1.000000 1.000000 0.966336 
1.000000 1.000000 1.000000 0.973055 
END_DATA
CAL    

DESCRIPTOR "Argyll Calibration options and model"
ORIGINATOR "Argyll dispcal"
CREATED "Mon Jun 20 18:23:08 202"

NUMBER_OF_FIELDS 3
BEGIN_DATA_FORMAT
R_P G_P B_P 
END_DATA_FORMAT

NUMBER_OF_SETS 32
BEGIN_DATA
-0.0000699841 0.000746744 0.00131056 
1.000070 0.999253 0.998689 
1.619097 1.402864 1.150587 
0.564797 0.569344 0.622714 
0.123518 0.122349 0.110671 
0.108767 0.132993 0.158003 
0.0918044 0.0996768 0.107126 
0.0901093 0.141270 0.169444 
0.0887393 0.0730043 0.0912247 
0.0643452 0.0773751 0.0746917 
0.0630159 0.0718717 0.0698422 
0.0530167 0.0660169 0.0671603 
0.0549273 0.0572619 0.0642731 
0.0502057 0.0511373 0.0564785 
0.0411057 0.0542325 0.0527927 
0.0425249 0.0515821 0.0480652 
0.0446018 0.0486985 0.0425475 
0.0388662 0.0450786 0.0413021 
0.0367095 0.0438668 0.0407230 
0.0320146 0.0412660 0.0373579 
0.0299929 0.0401765 0.0344544 
0.0285612 0.0372865 0.0328292 
0.0288552 0.0372648 0.0300216 
0.0275114 0.0354802 0.0283239 
0.0274872 0.0340393 0.0275154 
0.0203960 0.0331719 0.0248229 
0.0186216 0.0316335 0.0260706 
0.0208829 0.0308459 0.0218922 
0.0194738 0.0309676 0.0219280 
0.0166363 0.0298023 0.0211497 
0.0172895 0.0285799 0.0187428 
0.0130739 0.0293455 0.0199435 
END_DATA
