vert-spec-05-25_17:35.cal
CAL    

DESCRIPTOR "Argyll Device Calibration Curves"
ORIGINATOR "Argyll dispcal"
CREATED "Wed May 25 18:18:57 2022"
DEVICE_CLASS "DISPLAY"
COLOR_REP "RGB"
VIDEO_LUT_CALIBRATION_POSSIBLE "YES"
TV_OUTPUT_ENCODING "NO"
TARGET_WHITE_XYZ "121.680309 128.023095 139.424544"
TARGET_GAMMA "2.400000"
DEGREE_OF_BLACK_OUTPUT_OFFSET "1.000000"
BLACK_POINT_CORRECTION "0.180113"
BLACK_NEUTRAL_BLEND_RATE "4.000000"
QUALITY "medium"

NUMBER_OF_FIELDS 4
BEGIN_DATA_FORMAT
RGB_I RGB_R RGB_G RGB_B 
END_DATA_FORMAT

NUMBER_OF_SETS 256
BEGIN_DATA
0.00000 0.00000 0.00000 0.00000 
0.00392157 0.00000 0.00000 0.00000 
0.00784314 0.00352746 0.00174077 0.00000 
0.0117647 0.00759106 0.00547003 0.00166284 
0.0156863 0.0117008 0.00927840 0.00429938 
0.0196078 0.0158575 0.0131684 0.00701663 
0.0235294 0.0200620 0.0171428 0.00981837 
0.0274510 0.0243150 0.0212042 0.0127086 
0.0313725 0.0286175 0.0253556 0.0156916 
0.0352941 0.0329652 0.0295999 0.0187718 
0.0392157 0.0373363 0.0339319 0.0219542 
0.0431373 0.0417122 0.0383322 0.0252438 
0.0470588 0.0460709 0.0427688 0.0286463 
0.0509804 0.0503897 0.0472042 0.0321666 
0.0549020 0.0546488 0.0515987 0.0358000 
0.0588235 0.0588343 0.0559237 0.0395362 
0.0627451 0.0629311 0.0601635 0.0433595 
0.0666667 0.0669313 0.0643008 0.0472522 
0.0705882 0.0708476 0.0683311 0.0511952 
0.0745098 0.0746917 0.0722593 0.0551766 
0.0784314 0.0784696 0.0760918 0.0591802 
0.0823529 0.0821899 0.0798352 0.0631916 
0.0862745 0.0858582 0.0834981 0.0671974 
0.0901961 0.0894818 0.0870896 0.0711971 
0.0941176 0.0930679 0.0906222 0.0751939 
0.0980392 0.0966249 0.0941072 0.0791890 
0.101961 0.100164 0.0975571 0.0831788 
0.105882 0.103691 0.100992 0.0871665 
0.109804 0.107203 0.104424 0.0911523 
0.113725 0.110703 0.107853 0.0951418 
0.117647 0.114194 0.111282 0.0991478 
0.121569 0.117679 0.114713 0.103172 
0.125490 0.121157 0.118147 0.107214 
0.129412 0.124635 0.121585 0.111254 
0.133333 0.128116 0.125033 0.115289 
0.137255 0.131597 0.128490 0.119319 
0.141176 0.135082 0.131954 0.123345 
0.145098 0.138574 0.135424 0.127357 
0.149020 0.142085 0.138900 0.131357 
0.152941 0.145620 0.142390 0.135341 
0.156863 0.149179 0.145895 0.139308 
0.160784 0.152755 0.149408 0.143246 
0.164706 0.156347 0.152931 0.147147 
0.168627 0.159953 0.156459 0.151005 
0.172549 0.163573 0.159988 0.154828 
0.176471 0.167211 0.163525 0.158616 
0.180392 0.170864 0.167082 0.162378 
0.184314 0.174530 0.170660 0.166130 
0.188235 0.178203 0.174262 0.169871 
0.192157 0.181877 0.177881 0.173600 
0.196078 0.185552 0.181523 0.177313 
0.200000 0.189215 0.185184 0.181027 
0.203922 0.192871 0.188856 0.184734 
0.207843 0.196519 0.192541 0.188433 
0.211765 0.200164 0.196240 0.192122 
0.215686 0.203800 0.199946 0.195807 
0.219608 0.207430 0.203653 0.199483 
0.223529 0.211058 0.207361 0.203142 
0.227451 0.214691 0.211081 0.206781 
0.231373 0.218330 0.214811 0.210402 
0.235294 0.221975 0.218542 0.214002 
0.239216 0.225634 0.222284 0.217587 
0.243137 0.229302 0.226037 0.221183 
0.247059 0.232979 0.229791 0.224785 
0.250980 0.236668 0.233547 0.228385 
0.254902 0.240366 0.237307 0.231987 
0.258824 0.244067 0.241065 0.235596 
0.262745 0.247772 0.244822 0.239214 
0.266667 0.251481 0.248578 0.242840 
0.270588 0.255195 0.252323 0.246474 
0.274510 0.258911 0.256056 0.250101 
0.278431 0.262633 0.259778 0.253721 
0.282353 0.266356 0.263481 0.257331 
0.286275 0.270087 0.267170 0.260932 
0.290196 0.273829 0.270846 0.264529 
0.294118 0.277590 0.274519 0.268124 
0.298039 0.281361 0.278183 0.271713 
0.301961 0.285138 0.281830 0.275289 
0.305882 0.288921 0.285473 0.278846 
0.309804 0.292702 0.289114 0.282407 
0.313725 0.296472 0.292743 0.285982 
0.317647 0.300239 0.296355 0.289563 
0.321569 0.304013 0.299971 0.293141 
0.325490 0.307788 0.303597 0.296726 
0.329412 0.311557 0.307234 0.300316 
0.333333 0.315305 0.310878 0.303912 
0.337255 0.319034 0.314523 0.307520 
0.341176 0.322743 0.318173 0.311131 
0.345098 0.326429 0.321826 0.314746 
0.349020 0.330093 0.325479 0.318361 
0.352941 0.333739 0.329133 0.321976 
0.356863 0.337377 0.332793 0.325591 
0.360784 0.341008 0.336454 0.329208 
0.364706 0.344631 0.340117 0.332813 
0.368627 0.348256 0.343783 0.336402 
0.372549 0.351881 0.347455 0.339976 
0.376471 0.355509 0.351129 0.343537 
0.380392 0.359147 0.354808 0.347077 
0.384314 0.362794 0.358489 0.350603 
0.388235 0.366450 0.362168 0.354116 
0.392157 0.370107 0.365855 0.357611 
0.396078 0.373767 0.369537 0.361107 
0.400000 0.377437 0.373216 0.364607 
0.403922 0.381118 0.376902 0.368112 
0.407843 0.384815 0.380596 0.371623 
0.411765 0.388528 0.384306 0.375136 
0.415686 0.392248 0.388025 0.378657 
0.419608 0.395961 0.391738 0.382182 
0.423529 0.399668 0.395434 0.385704 
0.427451 0.403377 0.399121 0.389211 
0.431373 0.407086 0.402815 0.392702 
0.435294 0.410791 0.406515 0.396212 
0.439216 0.414484 0.410207 0.399764 
0.443137 0.418170 0.413880 0.403355 
0.447059 0.421853 0.417535 0.406970 
0.450980 0.425541 0.421183 0.410595 
0.454902 0.429237 0.424830 0.414223 
0.458824 0.432952 0.428480 0.417856 
0.462745 0.436689 0.432139 0.421493 
0.466667 0.440435 0.435813 0.425127 
0.470588 0.444183 0.439487 0.428750 
0.474510 0.447940 0.443160 0.432367 
0.478431 0.451696 0.446843 0.435968 
0.482353 0.455447 0.450521 0.439559 
0.486275 0.459194 0.454192 0.443166 
0.490196 0.462932 0.457859 0.446779 
0.494118 0.466658 0.461520 0.450393 
0.498039 0.470367 0.465175 0.454000 
0.501961 0.474064 0.468816 0.457601 
0.505882 0.477747 0.472448 0.461197 
0.509804 0.481419 0.476062 0.464779 
0.513725 0.485083 0.479658 0.468355 
0.517647 0.488744 0.483236 0.471924 
0.521569 0.492402 0.486797 0.475485 
0.525490 0.496056 0.490341 0.479038 
0.529412 0.499714 0.493869 0.482582 
0.533333 0.503406 0.497386 0.486115 
0.537255 0.507138 0.500923 0.489640 
0.541176 0.510911 0.504491 0.493158 
0.545098 0.514727 0.508091 0.496696 
0.549020 0.518583 0.511723 0.500258 
0.552941 0.522474 0.515387 0.503846 
0.556863 0.526398 0.519083 0.507459 
0.560784 0.530357 0.522813 0.511097 
0.564706 0.534349 0.526580 0.514763 
0.568627 0.538375 0.530387 0.518459 
0.572549 0.542434 0.534238 0.522184 
0.576471 0.546518 0.538134 0.525933 
0.580392 0.550631 0.542066 0.529709 
0.584314 0.554769 0.546034 0.533510 
0.588235 0.558940 0.550042 0.537327 
0.592157 0.563151 0.554077 0.541170 
0.596078 0.567384 0.558147 0.545049 
0.600000 0.571626 0.562254 0.548948 
0.603922 0.575871 0.566378 0.552849 
0.607843 0.580120 0.570510 0.556749 
0.611765 0.584360 0.574669 0.560637 
0.615686 0.588592 0.578849 0.564509 
0.619608 0.592815 0.583031 0.568393 
0.623529 0.597029 0.587212 0.572300 
0.627451 0.601235 0.591396 0.576223 
0.631373 0.605429 0.595578 0.580149 
0.635294 0.609611 0.599758 0.584081 
0.639216 0.613777 0.603925 0.588021 
0.643137 0.617921 0.608076 0.591972 
0.647059 0.622039 0.612211 0.595929 
0.650980 0.626135 0.616331 0.599888 
0.654902 0.630221 0.620436 0.603847 
0.658824 0.634302 0.624525 0.607807 
0.662745 0.638381 0.628607 0.611773 
0.666667 0.642468 0.632691 0.615746 
0.670588 0.646574 0.636791 0.619725 
0.674510 0.650697 0.640920 0.623705 
0.678431 0.654819 0.645084 0.627682 
0.682353 0.658925 0.649271 0.631660 
0.686275 0.663009 0.653449 0.635640 
0.690196 0.667074 0.657599 0.639625 
0.694118 0.671150 0.661720 0.643599 
0.698039 0.675245 0.665819 0.647536 
0.701961 0.679357 0.669943 0.651423 
0.705882 0.683477 0.674100 0.655260 
0.709804 0.687585 0.678289 0.659050 
0.713725 0.691665 0.682491 0.662863 
0.717647 0.695715 0.686676 0.666738 
0.721569 0.699744 0.690820 0.670676 
0.725490 0.703768 0.694920 0.674672 
0.729412 0.707796 0.698988 0.678707 
0.733333 0.711830 0.703058 0.682765 
0.737255 0.715869 0.707135 0.686837 
0.741176 0.719930 0.711218 0.690921 
0.745098 0.724017 0.715310 0.695027 
0.749020 0.728120 0.719418 0.699160 
0.752941 0.732236 0.723545 0.703328 
0.756863 0.736365 0.727684 0.707519 
0.760784 0.740511 0.731845 0.711720 
0.764706 0.744674 0.736018 0.715931 
0.768627 0.748855 0.740215 0.720153 
0.772549 0.753056 0.744433 0.724411 
0.776471 0.757275 0.748675 0.728699 
0.780392 0.761517 0.752931 0.733010 
0.784314 0.765787 0.757197 0.737346 
0.788235 0.770082 0.761475 0.741709 
0.792157 0.774397 0.765769 0.746088 
0.796078 0.778726 0.770075 0.750472 
0.800000 0.783074 0.774396 0.754857 
0.803922 0.787451 0.778724 0.759242 
0.807843 0.791870 0.783067 0.763619 
0.811765 0.796313 0.787436 0.767995 
0.815686 0.800765 0.791816 0.772353 
0.819608 0.805232 0.796178 0.776671 
0.823529 0.809722 0.800523 0.780957 
0.827451 0.814223 0.804877 0.785202 
0.831373 0.818710 0.809239 0.789392 
0.835294 0.823186 0.813587 0.793535 
0.839216 0.827652 0.817905 0.797691 
0.843137 0.832110 0.822206 0.801875 
0.847059 0.836566 0.826494 0.806072 
0.850980 0.841020 0.830765 0.810273 
0.854902 0.845469 0.835026 0.814477 
0.858824 0.849921 0.839297 0.818688 
0.862745 0.854371 0.843578 0.822906 
0.866667 0.858807 0.847882 0.827139 
0.870588 0.863227 0.852196 0.831403 
0.874510 0.867616 0.856498 0.835694 
0.878431 0.871967 0.860807 0.840014 
0.882353 0.876285 0.865119 0.844349 
0.886275 0.880584 0.869413 0.848673 
0.890196 0.884875 0.873695 0.853013 
0.894118 0.889152 0.877975 0.857391 
0.898039 0.893420 0.882267 0.861783 
0.901961 0.897681 0.886562 0.866187 
0.905882 0.901928 0.890863 0.870602 
0.909804 0.906182 0.895177 0.875028 
0.913725 0.910440 0.899486 0.879454 
0.917647 0.914699 0.903820 0.883896 
0.921569 0.918956 0.908178 0.888385 
0.925490 0.923208 0.912568 0.892914 
0.929412 0.927450 0.916984 0.897493 
0.933333 0.931680 0.921419 0.902120 
0.937255 0.935900 0.925872 0.906824 
0.941176 0.940114 0.930345 0.911597 
0.945098 0.944307 0.934833 0.916420 
0.949020 0.948481 0.939340 0.921303 
0.952941 0.952633 0.943856 0.926240 
0.956863 0.956765 0.948382 0.931246 
0.960784 0.960879 0.952922 0.936319 
0.964706 0.964977 0.957473 0.941470 
0.968627 0.969062 0.962033 0.946685 
0.972549 0.973134 0.966605 0.951951 
0.976471 0.977193 0.971188 0.957272 
0.980392 0.981238 0.975783 0.962652 
0.984314 0.985270 0.980390 0.968095 
0.988235 0.989289 0.985009 0.973601 
0.992157 0.993294 0.989640 0.979171 
0.996078 0.997287 0.994284 0.984807 
1.000000 1.000000 0.998939 0.990509 
END_DATA
CAL    

DESCRIPTOR "Argyll Calibration options and model"
ORIGINATOR "Argyll dispcal"
CREATED "Wed May 25 18:18:57 202"

NUMBER_OF_FIELDS 3
BEGIN_DATA_FORMAT
R_P G_P B_P 
END_DATA_FORMAT

NUMBER_OF_SETS 32
BEGIN_DATA
0.00124241 0.00196535 0.00249050 
0.998758 0.998035 0.997510 
1.611165 1.549714 1.314440 
0.603054 0.597992 0.683223 
0.130056 0.128836 0.180499 
0.140360 0.144855 0.165812 
0.124435 0.148263 0.129708 
0.0966892 0.186067 0.185864 
0.0942004 0.0755601 0.109597 
0.0876748 0.0545601 0.0891570 
0.0782565 0.0771917 0.0927319 
0.0702239 0.0672276 0.0905695 
0.0653864 0.0621405 0.0759698 
0.0607568 0.0584882 0.0670830 
0.0558648 0.0553790 0.0553246 
0.0511572 0.0518162 0.0465306 
0.0473307 0.0503899 0.0461862 
0.0453842 0.0476583 0.0411900 
0.0425370 0.0451711 0.0366945 
0.0399140 0.0437709 0.0307477 
0.0365712 0.0433526 0.0306121 
0.0333143 0.0420985 0.0270348 
0.0320294 0.0390582 0.0263866 
0.0306770 0.0397120 0.0219326 
0.0284209 0.0390963 0.0238376 
0.0285402 0.0374938 0.0200223 
0.0274180 0.0358085 0.0196194 
0.0234901 0.0361141 0.0171889 
0.0228031 0.0306752 0.0173771 
0.0199799 0.0367254 0.0175681 
0.0200508 0.0308682 0.0148595 
0.0182099 0.0347418 0.0174014 
END_DATA
